!!!!SEGMENT: pl-stab--4a--001-007_dankowski-adalbert--vesper-beate-marie-vir-magnificat.krn
!!!cenid: 18xx:3496
!!!COM: Dankowski, Adalbert
!!!COM-rismid: pe30000793
!!!CDT: ~1760-~1836
!!!CNT: Polish
!!!OPR: Vesper Beate Marie Vir
!!!OTL: Magnificat
!!!OMV: 007
!!!PDT:
!!!AGN: Sacred; Vespers
!!!SMS-siglum: PL-STAb
!!!SMS-shelfmark: 4a
!!!SMS-shelfwork: 001-007 M
!!!SMS-variant:
!!!SMS-altvar:
!!!NIFC-rismid: 301050556
!!!URL-scan: https://repozytorium.nifc.pl/islandora/object/pl-stab%3A1091/datastream/PDF/view
!!!ONB-nifc: UWAGA: części Nieszporów: 1. Domine ad adjuvandum, 2. Dixit Dominus, 3. Laudate pueri, 4. Laetatus sum, 5. Nisi Dominus, 6. Lauda Jerusalem, 7. Magnificat, 8. Et misericordia, 9. Gloria. UWAGA: Na f. 1v okładki zapisany głos org niezidentyfikowanych nieszporów
!!!AIN: 1 alto 1 bass 2 cor 1 organ 1 soprn 1 tenor 2 violn
!!!key: D
**kern	**fba	**dynam	**kern	**dynam	**kern	**dynam	**kern	**text	**dynam	**kern	**text	**dynam	**kern	**text	**dynam	**kern	**text	**dynam	**kern	**dynam	**kern	**dynam
*	*	*	*group3	*	*group3	*	*group2	*	*	*group2	*	*	*group2	*	*	*group2	*	*	*group1	*	*group1	*
*part9	*part9	*part9	*part8	*part8	*part7	*part7	*part6	*part6	*part6	*part5	*part5	*part5	*part4	*part4	*part4	*part3	*part3	*part3	*part2	*part2	*part1	*part1
*staff9	*	*	*staff8	*	*staff7	*	*staff6	*staff6	*	*staff5	*staff5	*	*staff4	*staff4	*	*staff3	*staff3	*	*staff2	*	*staff1	*
*I"Organo	*	*	*I"Violino Secundo	*	*I"Violino Primo	*	*I"Baſso	*	*	*I"Tenor	*	*	*I"Alto	*	*	*I"Canto	*	*	*I"Cornu Secundo ex D.	*	*I"Cornu Primo ex D:	*
*I'org	*	*	*I'vl 2	*	*I'vl 1	*	*I'B	*	*	*I'T	*	*	*I'A	*	*	*I'S	*	*	*I'cor 2 in D	*	*I'cor 1 in D	*
*Iorgan	*	*	*Ivioln	*	*Ivioln	*	*Ibass	*	*	*Itenor	*	*	*Ialto	*	*	*Isoprn	*	*	*Icor	*	*Icor	*
*ICklav	*	*	*ICstr	*	*ICstr	*	*ICvox	*	*	*ICvox	*	*	*ICvox	*	*	*ICvox	*	*	*ICbras	*	*ICbras	*
*IGcont	*	*	*	*	*	*	*	*	*	*	*	*	*	*	*	*	*	*	*	*	*	*
*clefF4	*	*	*clefG2	*	*clefG2	*	*clefF4	*	*	*clefC4	*	*	*clefC3	*	*	*clefC1	*	*	*clefG2	*	*clefG2	*
*	*	*	*	*	*	*	*	*	*	*	*	*	*	*	*	*	*	*	*ITrd6c10	*	*ITrd6c10	*
*k[f#c#]	*	*	*k[f#c#]	*	*k[f#c#]	*	*k[f#c#]	*	*	*k[f#c#]	*	*	*k[f#c#]	*	*	*k[f#c#]	*	*	*k[f#c#]	*	*k[f#c#]	*
*D:	*	*	*D:	*	*D:	*	*D:	*	*	*D:	*	*	*D:	*	*	*D:	*	*	*D:	*	*D:	*
*M2/2	*	*	*M2/2	*	*M2/2	*	*M2/2	*	*	*M2/2	*	*	*M2/2	*	*	*M2/2	*	*	*M2/2	*	*M2/2	*
*met(c|)	*	*	*met(c|)	*	*met(c|)	*	*met(c|)	*	*	*met(c|)	*	*	*met(c|)	*	*	*met(c|)	*	*	*met(c|)	*	*met(c|)	*
*2\right	*	*	*2\right	*	*2\right	*	*2\right	*	*	*2\right	*	*	*2\right	*	*	*2\right	*	*	*2\right	*	*2\right	*
=1	=1	=1	=1	=1	=1	=1	=1	=1	=1	=1	=1	=1	=1	=1	=1	=1	=1	=1	=1	=1	=1	=1
!	!	!	!	!	!	!	!	!	!	!	!	!	!	!	!	!LO:TX:t=P:znaki:f#cc#:problem	!	!	!	!	!	!
!	!	!	!	!	!	!	!	!	!	!	!	!	!	!	!	!	!	!	!	!	!LO:TX:a:i:t=allegro	!
!LO:TX:a:i:t=Allegro tutti	!	!	!LO:TX:a:i:t=Allegro	!LO:DY:a:t=for	!LO:TX:a:i:t=Allegro	!	!LO:TX:a:i:t=allegro	!	!	!LO:TX:a:i:t=allegro	!	!	!LO:TX:a:i:t=allegro	!	!	!LO:TX:a:i:t=allegro	!	!	!LO:TX:a:i:t=allegro	!	!	!
!	!	!	!	!	!	!	!	!	!	!LO:TX:t=P:znaki:c#F#:problem	!	!	!	!	!	!	!	!	!	!	!	!
8D\L	.	.	8a/L	f	2d\ 2a 2ff#	.	2D\	Ma-	.	2A\	Ma-	.	2f#\	Ma-	.	2dd\	Ma-	.	2d\	.	2f#\	.
8D\	.	.	8a/	.	.	.	.	.	.	.	.	.	.	.	.	.	.	.	.	.	.	.
8D\	.	.	8a/	.	.	.	.	.	.	.	.	.	.	.	.	.	.	.	.	.	.	.
8D\J	.	.	8a/J	.	.	.	.	.	.	.	.	.	.	.	.	.	.	.	.	.	.	.
*tremolo	*	*	*tremolo	*	*	*	*	*	*	*	*	*	*	*	*	*	*	*	*	*	*	*
8C#/L	6 5	.	8a/L	.	4.gg\	.	4C#/	-gni-	.	4A\	-gni-	.	4g\	-gni-	.	4ee\	-gni-	.	2A/	.	2e\	.
8C#/	.	.	8a/	.	.	.	.	.	.	.	.	.	.	.	.	.	.	.	.	.	.	.
8C#/	.	.	8a/	.	.	.	4C#/	-fi-	.	4A\	-fi-	.	4g\	-fi-	.	4ee\	-fi-	.	.	.	.	.
8C#/J	.	.	8a/J	.	16ff#\LL	.	.	.	.	.	.	.	.	.	.	.	.	.	.	.	.	.
.	.	.	.	.	16gg\JJ	.	.	.	.	.	.	.	.	.	.	.	.	.	.	.	.	.
=2	=2	=2	=2	=2	=2	=2	=2	=2	=2	=2	=2	=2	=2	=2	=2	=2	=2	=2	=2	=2	=2	=2
!	!	!	!	!	!	!	!	!	!	!	!	!	!	!	!	!	!	!	!	!LO:DY:a:t=for.	!	!
!	!	!	!	!	!	!	!	!	!	!	!	!	!	!	!	!	!	!	!	!	!	!LO:DY:a:t=for
8D\L	.	.	8f#/L	.	4.aa\	.	2D\	-cat	.	2A\	-cat	.	2f#\	-cat	.	2dd\	-cat	.	2F#/	f	2d\	f
8D\	.	.	8f#/	.	.	.	.	.	.	.	.	.	.	.	.	.	.	.	.	.	.	.
8D\	.	.	8f#/	.	.	.	.	.	.	.	.	.	.	.	.	.	.	.	.	.	.	.
8D\J	.	.	8f#/J	.	8ff#\	.	.	.	.	.	.	.	.	.	.	.	.	.	.	.	.	.
8F#\L	6	.	8a/L	.	4dd\	.	2F#\	a-	.	2A\	a-	.	2f#\	a-	.	2dd\	a-	.	2d\	.	2f#\	.
8F#\	.	.	8a/	.	.	.	.	.	.	.	.	.	.	.	.	.	.	.	.	.	.	.
8F#\	.	.	8a/	.	4dd\	.	.	.	.	.	.	.	.	.	.	.	.	.	.	.	.	.
8F#\J	.	.	8a/J	.	.	.	.	.	.	.	.	.	.	.	.	.	.	.	.	.	.	.
=3	=3	=3	=3	=3	=3	=3	=3	=3	=3	=3	=3	=3	=3	=3	=3	=3	=3	=3	=3	=3	=3	=3
8G\L	6	.	8b\L	.	4.ee\	.	2G\	-ni-	.	2B\	-ni-	.	2g\	-ni-	.	2ee\	-ni-	.	2e\	.	2g\	.
8G\	.	.	8b\	.	.	.	.	.	.	.	.	.	.	.	.	.	.	.	.	.	.	.
8G\	.	.	8b\	.	.	.	.	.	.	.	.	.	.	.	.	.	.	.	.	.	.	.
8G\J	.	.	8b\J	.	16gg\LL	.	.	.	.	.	.	.	.	.	.	.	.	.	.	.	.	.
.	.	.	.	.	16ff#\JJ	.	.	.	.	.	.	.	.	.	.	.	.	.	.	.	.	.
8A\L	.	.	8cc#\L	.	4ee\	.	2A\	-ma	.	2A\	-ma	.	2e\	-ma	.	2cc#\	-ma	.	2A/	.	2e\	.
8A\	.	.	8cc#\	.	.	.	.	.	.	.	.	.	.	.	.	.	.	.	.	.	.	.
8A\	.	.	8cc#\	.	4ee\	.	.	.	.	.	.	.	.	.	.	.	.	.	.	.	.	.
8A\J	.	.	8cc#\J	.	.	.	.	.	.	.	.	.	.	.	.	.	.	.	.	.	.	.
=4	=4	=4	=4	=4	=4	=4	=4	=4	=4	=4	=4	=4	=4	=4	=4	=4	=4	=4	=4	=4	=4	=4
8D\L	.	.	8a/L	.	4ff#\	.	2D\	me-	.	2A\	me-	.	2f#\	me-	.	2dd\	me-	.	2F#/	.	2d\	.
8D\	.	.	8a/	.	.	.	.	.	.	.	.	.	.	.	.	.	.	.	.	.	.	.
8D\	.	.	8a/	.	16ff#\LL	.	.	.	.	.	.	.	.	.	.	.	.	.	.	.	.	.
.	.	.	.	.	16ee\	.	.	.	.	.	.	.	.	.	.	.	.	.	.	.	.	.
8D\J	.	.	8a/J	.	16ff#\	.	.	.	.	.	.	.	.	.	.	.	.	.	.	.	.	.
.	.	.	.	.	16gg\JJ	.	.	.	.	.	.	.	.	.	.	.	.	.	.	.	.	.
8F#\L	6	.	8a/L	.	4aa\	.	2F#\	-a	.	2A\	-a	.	2f#\	-a	.	2dd\	-a	.	2d\	.	2f#\	.
8F#\	.	.	8a/	.	.	.	.	.	.	.	.	.	.	.	.	.	.	.	.	.	.	.
8F#\	.	.	8a/	.	4dd\	.	.	.	.	.	.	.	.	.	.	.	.	.	.	.	.	.
8F#\J	.	.	8a/J	.	.	.	.	.	.	.	.	.	.	.	.	.	.	.	.	.	.	.
*	*	*	*Xtremolo	*	*	*	*	*	*	*	*	*	*	*	*	*	*	*	*	*	*	*
=5	=5	=5	=5	=5	=5	=5	=5	=5	=5	=5	=5	=5	=5	=5	=5	=5	=5	=5	=5	=5	=5	=5
8G\L	6	.	8b\L	.	4.ee\	.	2G\	Do-	.	2B\	Do-	.	2g\	Do-	.	2ee\	Do-	.	2e\	.	2g\	.
8G\	.	.	8b\	.	.	.	.	.	.	.	.	.	.	.	.	.	.	.	.	.	.	.
8G\	.	.	8b\	.	.	.	.	.	.	.	.	.	.	.	.	.	.	.	.	.	.	.
8G\J	.	.	8b\J	.	16gg\LL	.	.	.	.	.	.	.	.	.	.	.	.	.	.	.	.	.
.	.	.	.	.	16ff#\JJ	.	.	.	.	.	.	.	.	.	.	.	.	.	.	.	.	.
*	*	*	*tremolo	*	*	*	*	*	*	*	*	*	*	*	*	*	*	*	*	*	*	*
8A\L	.	.	8cc#\L	.	4ee\	.	2A\	-mi-	.	2A\	-mi-	.	2e\	-mi-	.	2cc#\	-mi-	.	2A/	.	2e\	.
8A\	.	.	8cc#\	.	.	.	.	.	.	.	.	.	.	.	.	.	.	.	.	.	.	.
8A\	.	.	8cc#\	.	4ee\	.	.	.	.	.	.	.	.	.	.	.	.	.	.	.	.	.
8A\J	.	.	8cc#\J	.	.	.	.	.	.	.	.	.	.	.	.	.	.	.	.	.	.	.
*Xtremolo	*	*	*Xtremolo	*	*	*	*	*	*	*	*	*	*	*	*	*	*	*	*	*	*	*
=6	=6	=6	=6	=6	=6	=6	=6	=6	=6	=6	=6	=6	=6	=6	=6	=6	=6	=6	=6	=6	=6	=6
!	!	!	!	!	!LO:LB:g=original	!	!	!	!	!	!	!	!	!	!	!	!	!	!	!	!	!
4D\	.	.	4dd\	.	4ff#\	.	2D\	-num	.	2A\	-num	.	2f#\	-num	.	2dd\	-num	.	4F#/	.	4d\	.
4d\	.	.	8dd\L	.	8ff#\L	.	.	.	.	.	.	.	.	.	.	.	.	.	4F#/	.	4d\	.
.	.	.	8ff#\J	.	8aa\J	.	.	.	.	.	.	.	.	.	.	.	.	.	.	.	.	.
4D\	.	.	4f#\ 4dd	.	4d\ 4a 4ff#	.	2r	.	.	2r	.	.	2r	.	.	2r	.	.	4F#/	.	4d\	.
4r	.	.	4r	.	4r	.	.	.	.	.	.	.	.	.	.	.	.	.	4r	.	4r	.
=7	=7	=7	=7	=7	=7	=7	=7	=7	=7	=7	=7	=7	=7	=7	=7	=7	=7	=7	=7	=7	=7	=7
!	!	!	!LO:TX:a:i:t=dol&colon;	!	!LO:TX:a:i:t=dol.	!	!	!	!	!	!	!	!	!	!	!	!	!	!	!	!	!
1r	.	.	8d|/L	.	8dd\L	.	1r	.	.	1r	.	.	1r	.	.	1r	.	.	1r	.	1r	.
.	.	.	8e|/	.	8ee|\	.	.	.	.	.	.	.	.	.	.	.	.	.	.	.	.	.
!	!	!	!	!LO:DY:a:t=p.	!	!LO:DY:a:t=p.	!	!	!	!	!	!	!	!	!	!	!	!	!	!	!	!
.	.	.	8f#|/	p	8ff#|\	p	.	.	.	.	.	.	.	.	.	.	.	.	.	.	.	.
.	.	.	8g|/J	.	8gg|\J	.	.	.	.	.	.	.	.	.	.	.	.	.	.	.	.	.
!	!	!	!LO:LB:g=original	!	!	!	!	!	!	!	!	!	!	!	!	!	!	!	!	!	!	!
.	.	.	8a|/L	.	8aa|\L	.	.	.	.	.	.	.	.	.	.	.	.	.	.	.	.	.
.	.	.	8g|/	.	8gg|\	.	.	.	.	.	.	.	.	.	.	.	.	.	.	.	.	.
.	.	.	8f#|/	.	8ff#|\	.	.	.	.	.	.	.	.	.	.	.	.	.	.	.	.	.
.	.	.	8e|/J	.	8ee|\J	.	.	.	.	.	.	.	.	.	.	.	.	.	.	.	.	.
=8	=8	=8	=8	=8	=8	=8	=8	=8	=8	=8	=8	=8	=8	=8	=8	=8	=8	=8	=8	=8	=8	=8
!	!	!	!	!	!	!	!	!	!	!	!	!	!	!	!	!	!	!LO:DY:a:t=p.	!	!	!	!
!	!	!	!	!	!	!	!	!	!	!	!	!	!	!	!LO:DY:a:t=p.	!	!	!	!	!	!	!
!	!	!	!	!	!	!	!	!	!LO:DY:a:t=p.	!	!	!	!	!	!	!	!	!	!	!	!	!
4r	.	.	(8e/L	.	(8ee\L	.	4r	.	p	4r	.	p	4r	.	p	4r	.	p	4r	.	4r	.
.	.	.	8d/J)	.	8dd\J)	.	.	.	.	.	.	.	.	.	.	.	.	.	.	.	.	.
!	!	!	!	!	!	!	!	!	!	!	!	!	!	!	!	!	!	!	!	!LO:DY:a:t=p.	!	!LO:DY:a:t=p.
!	!	!LO:DY:a:t=p.	!	!	!	!	!	!	!	!	!	!	!	!	!	!	!	!	!	!	!	!
4D\	.	p	2d/	.	2dd\	.	4D\	et	.	4A\	et	.	4f#\	et	.	4dd\	Et	.	4F#/	p	4d\	p
!	!	!	!	!	!	!	!	!	!	!	!	!	!LO:LB:g=original	!	!	!	!	!	!	!	!	!
4F#\	.	.	.	.	.	.	4F#\	e-	.	4A\	e-	.	4f#\	e-	.	4dd\	e-	.	4F#/	.	4d\	.
4D\	.	.	8f#/L	.	8ff#\L	.	4D\	-xul-	.	4A\	-xul-	.	4f#\	-xul-	.	4dd\	-xul-	.	4F#/	.	4d\	.
.	.	.	8d/J	.	8dd\J	.	.	.	.	.	.	.	.	.	.	.	.	.	.	.	.	.
=9	=9	=9	=9	=9	=9	=9	=9	=9	=9	=9	=9	=9	=9	=9	=9	=9	=9	=9	=9	=9	=9	=9
!	!	!	!	!	!	!	!	!	!	!	!	!	!	!	!	!LO:LB:g=original	!	!	!	!	!	!
!	!	!	!	!	!	!	!LO:LB:g=original	!	!	!	!	!	!	!	!	!	!	!	!	!	!	!
4A\	.	.	8c#|/L	.	8cc#|\L	.	4A\	-ta-	.	4A\	-ta-	.	4e\	-ta-	.	4cc#\	-ta-	.	4A/	.	4e\	.
.	.	.	8d|/	.	8dd|\	.	.	.	.	.	.	.	.	.	.	.	.	.	.	.	.	.
4AA/	.	.	8e|/	.	8ee|\	.	4AA/	-vit	.	4A\	-vit	.	4e\	-vit	.	4cc#\	-vit	.	4A/	.	4e\	.
.	.	.	8f#|/J	.	8ff#|\J	.	.	.	.	.	.	.	.	.	.	.	.	.	.	.	.	.
2r	.	.	8g|/L	.	8gg|\L	.	2r	.	.	2r	.	.	2r	.	.	2r	.	.	2r	.	2r	.
.	.	.	8f#|/	.	8ff#|\	.	.	.	.	.	.	.	.	.	.	.	.	.	.	.	.	.
.	.	.	8e|/	.	8ee|\	.	.	.	.	.	.	.	.	.	.	.	.	.	.	.	.	.
.	.	.	8d|/J	.	8dd|\J	.	.	.	.	.	.	.	.	.	.	.	.	.	.	.	.	.
=10	=10	=10	=10	=10	=10	=10	=10	=10	=10	=10	=10	=10	=10	=10	=10	=10	=10	=10	=10	=10	=10	=10
!LO:LB:g=original	!	!	!	!	!	!	!	!	!	!LO:LB:g=original	!	!	!	!	!	!	!	!	!	!	!	!
4r	.	.	(8d/L	.	8dd\L	.	4r	.	.	4r	.	.	4r	.	.	4r	.	.	4r	.	4r	.
.	.	.	8c#/J)	.	8cc#\J	.	.	.	.	.	.	.	.	.	.	.	.	.	.	.	.	.
4AA/	.	.	2c#/	.	2cc#\	.	4A\	Spi-	.	4A\	Spi-	.	4e\	Spi-	.	4cc#\	Spi-	.	4A/	.	4e\	.
4A\	.	.	.	.	.	.	4A\	-ri-	.	4A\	-ri-	.	4e\	-ri-	.	4cc#\	-ri-	.	4A/	.	4e\	.
4AA/	.	.	8B/L	.	8b\L	.	4A\	-tus	.	4A\	-tus	.	4e\	-tus	.	4cc#\	-tus	.	4A/	.	4e\	.
.	.	.	8c#/J	.	8cc#\J	.	.	.	.	.	.	.	.	.	.	.	.	.	.	.	.	.
=11	=11	=11	=11	=11	=11	=11	=11	=11	=11	=11	=11	=11	=11	=11	=11	=11	=11	=11	=11	=11	=11	=11
4D\	.	.	8d|/L	.	8dd|\L	.	4d\	me-	.	4A\	me-	.	4f#\	me-	.	4dd\	me-	.	4F#/	.	4d\	.
.	.	.	8e|/	.	8ee|\	.	.	.	.	.	.	.	.	.	.	.	.	.	.	.	.	.
4D\	.	.	8f#|/	.	8ff#|\	.	4D\	-us	.	4A\	-us	.	4f#\	-us	.	4dd\	-us	.	4F#/	.	4d\	.
.	.	.	8g|/J	.	8gg|\J	.	.	.	.	.	.	.	.	.	.	.	.	.	.	.	.	.
4r	.	.	8a|/L	.	8aa|\L	.	4r	.	.	4r	.	.	4r	.	.	4r	.	.	2r	.	2r	.
.	.	.	8f#|/	.	8ff#|\	.	.	.	.	.	.	.	.	.	.	.	.	.	.	.	.	.
4F#\	6 3	.	8e|/	.	8ee|\	.	4F#\	et	.	4A\	et	.	4a\	et	.	4dd\	et	.	.	.	.	.
.	.	.	8d|/J	.	8dd|\J	.	.	.	.	.	.	.	.	.	.	.	.	.	.	.	.	.
=12	=12	=12	=12	=12	=12	=12	=12	=12	=12	=12	=12	=12	=12	=12	=12	=12	=12	=12	=12	=12	=12	=12
!	!	!	!	!	!	!	!	!	!	!	!	!	!	!	!	!	!	!	!LO:LB:g=original	!	!LO:LB:g=original	!
!	!	!	!	!	!LO:LB:g=original	!	!	!	!	!	!	!	!	!	!	!	!	!	!	!	!	!
2G\	6 3	.	(8d#X/L	.	(8dd#X\L	.	2G\	e-	.	2B\	e-	.	2b\	ex-	.	2ee\	ex-	.	1r	.	1r	.
.	.	.	8e/J)	.	8ee\J)	.	.	.	.	.	.	.	.	.	.	.	.	.	.	.	.	.
.	.	.	(2e/	.	2ee|\	.	.	.	.	.	.	.	.	.	.	.	.	.	.	.	.	.
2A\	6 3	.	.	.	.	.	2A\	-xul-	.	2A\	-xul-	.	2cc#\	-ul-	.	2ff#\	-ul-	.	.	.	.	.
.	.	.	4f#/)	.	4ff#\	.	.	.	.	.	.	.	.	.	.	.	.	.	.	.	.	.
=13	=13	=13	=13	=13	=13	=13	=13	=13	=13	=13	=13	=13	=13	=13	=13	=13	=13	=13	=13	=13	=13	=13
2B\	6 3	.	(8a/L	.	(8aa\L	.	2B\	-ta-	.	2G/	-ta-	.	2dd\	-ta-	.	2gg\	-ta-	.	1r	.	1r	.
.	.	.	8f#/J)	.	8ff#\J)	.	.	.	.	.	.	.	.	.	.	.	.	.	.	.	.	.
.	.	.	(2g/	.	(2gg\	.	.	.	.	.	.	.	.	.	.	.	.	.	.	.	.	.
2A\	6 3	.	.	.	.	.	2A\	-vit	.	2A\	-vit	.	2cc#\	-vit	.	2ff#\	-vit	.	.	.	.	.
.	.	.	4f#/)	.	4ff#\)	.	.	.	.	.	.	.	.	.	.	.	.	.	.	.	.	.
=14	=14	=14	=14	=14	=14	=14	=14	=14	=14	=14	=14	=14	=14	=14	=14	=14	=14	=14	=14	=14	=14	=14
!	!	!	!LO:LB:g=original	!	!	!	!	!	!	!	!	!	!	!	!	!	!	!	!	!	!	!
2G\	6 3	.	(8f#/L	.	(8ff#\L	.	2G\	Spi-	.	2B\	Spi-	.	2b\	Spi-	.	2ee\	Spi-	.	1r	.	1r	.
.	.	.	8e/J)	.	8ee\J)	.	.	.	.	.	.	.	.	.	.	.	.	.	.	.	.	.
.	.	.	(2e/	.	(2ee\	.	.	.	.	.	.	.	.	.	.	.	.	.	.	.	.	.
2G#X\	6 5	.	.	.	.	.	4G#X\	-ri-	.	4B\	-ri-	.	4b\	-ri-	.	4dd\	-ri-	.	.	.	.	.
.	.	.	4d/)	.	4dd\)	.	4G#\	-tus	.	4B\	-tus	.	4b\	-tus	.	4dd\	-tus	.	.	.	.	.
=15	=15	=15	=15	=15	=15	=15	=15	=15	=15	=15	=15	=15	=15	=15	=15	=15	=15	=15	=15	=15	=15	=15
!	!	!	!	!LO:DY:a:t=for	!	!LO:DY:a:t=for	!	!	!	!	!	!	!	!	!	!	!	!	!	!	!	!
4A\	3	.	4c#/	f	4cc#\	f	4A\	me-	.	4A\	me-	.	4e\	me-	.	4dd\	me-	.	2r	.	2r	.
!LO:TX:a:i:t=tutti	!	!	!	!	!	!	!	!	!	!	!	!	!	!	!LO:DY:a:t=for	!	!	!	!	!	!	!
4AA/	.	.	8r	.	8r	.	4AA/	-us	.	4A\	-us	.	4e\	-us	f	4cc#\	-us	.	.	.	.	.
*	*	*	*Xtuplet	*	*	*	*	*	*	*	*	*	*	*	*	*	*	*	*	*	*	*
!	!	!	!	!	!LO:TUP:a:problem=klamra łukowa, haczyk zamiast numeru	!	!	!	!	!	!	!	!	!	!	!	!	!	!	!	!	!
.	.	.	24e/LL	.	24ee\LL	.	.	.	.	.	.	.	.	.	.	.	.	.	.	.	.	.
.	.	.	24f#/	.	24ff#\	.	.	.	.	.	.	.	.	.	.	.	.	.	.	.	.	.
.	.	.	24g#X/JJ	.	24gg#X\JJ	.	.	.	.	.	.	.	.	.	.	.	.	.	.	.	.	.
4r	.	.	8a|/L	.	8aa|\L	.	4r	.	.	4r	.	.	4r	.	.	4r	.	.	4r	.	4r	.
.	.	.	8a|/	.	8aa|\	.	.	.	.	.	.	.	.	.	.	.	.	.	.	.	.	.
!	!	!	!	!	!	!	!	!	!	!	!	!LO:DY:a:t=for	!	!	!	!	!	!	!	!LO:DY:a:t=for	!	!LO:DY:a:t=for
4c#\	6 r5n	.	8gn|/	.	8ggn|\	.	4c#\	in	.	4A\	in	f	4g\	in	.	4ee\	in	.	4A/	f	4e\	f
.	.	.	8g|/J	.	8gg|\J	.	.	.	.	.	.	.	.	.	.	.	.	.	.	.	.	.
=16	=16	=16	=16	=16	=16	=16	=16	=16	=16	=16	=16	=16	=16	=16	=16	=16	=16	=16	=16	=16	=16	=16
!	!	!	!	!	!	!	!	!	!	!	!	!	!LO:LB:g=original	!	!	!	!	!	!	!	!	!
4d\	.	.	4f#/	.	4ff#|\	.	4d\	De-	.	4A\	De-	.	4f#\	De-	.	4dd\	De-	.	4d\	.	4f#\	.
4d\	.	.	8r	.	8r	.	4d\	-o	.	4A\	-o	.	4f#\	-o	.	4dd\	-o	.	4d\	.	4f#\	.
.	.	.	(16d/LL	.	(16dd\LL	.	.	.	.	.	.	.	.	.	.	.	.	.	.	.	.	.
.	.	.	16e/JJ)	.	16ee\JJ)	.	.	.	.	.	.	.	.	.	.	.	.	.	.	.	.	.
4r	.	.	8f#|/L	.	8ff#|\L	.	4r	.	.	4r	.	.	4r	.	.	4r	.	.	4r	.	4r	.
.	.	.	8g#X|/J	.	8gg#X|\J	.	.	.	.	.	.	.	.	.	.	.	.	.	.	.	.	.
*	*	*	*	*	*	*	*	*	*	*	*ij	*	*	*ij	*	*	*ij	*	*	*	*	*
!	!	!	!	!	!	!	!	!	!	!	!	!	!	!	!	!LO:LB:g=original	!	!	!	!	!	!
4B\	6\ 5	.	(8.g#/L	.	8.gg#t\L	.	4B\	in	.	4e\	in	.	4g#X\	in	.	4dd\	in	.	4e\	.	4e\	.
.	.	.	32f#/LL	.	(32ff#\LL	.	.	.	.	.	.	.	.	.	.	.	.	.	.	.	.	.
.	.	.	32g#/JJJ)	.	32gg#\JJJ)	.	.	.	.	.	.	.	.	.	.	.	.	.	.	.	.	.
=17	=17	=17	=17	=17	=17	=17	=17	=17	=17	=17	=17	=17	=17	=17	=17	=17	=17	=17	=17	=17	=17	=17
!	!	!	!	!	!	!	!LO:LB:g=original	!	!	!	!	!	!	!	!	!	!	!	!	!	!	!
4A\	.	.	4a|/	.	4aa|\	.	4A\	De-	.	4e\	De-	.	4a\	De-	.	4cc#\	De-	.	4A/	.	4e\	.
4A\	.	.	8r	.	8r	.	4A\	-o	.	4e\	-o	.	4a\	-o	.	4cc#\	-o	.	4A/	.	4e\	.
!	!	!	!LO:TUP:b:problem=klamra łukowa	!	!LO:TUP:a:problem=klamra łukowa	!	!	!	!	!	!	!	!	!	!	!	!	!	!	!	!	!
!	!	!	!	!	!LO:TUP:a:problem=klamra łukowa, haczyk zamiast numeru	!	!	!	!	!	!	!	!	!	!	!	!	!	!	!	!	!
.	.	.	24e/LL	.	24ee\LL	.	.	.	.	.	.	.	.	.	.	.	.	.	.	.	.	.
.	.	.	24f#/	.	24ff#\	.	.	.	.	.	.	.	.	.	.	.	.	.	.	.	.	.
.	.	.	24g#X/JJ	.	24gg#X\JJ	.	.	.	.	.	.	.	.	.	.	.	.	.	.	.	.	.
!	!	!	!	!	!LO:LB:g=original	!	!	!	!	!	!	!	!	!	!	!	!	!	!	!	!	!
4r	.	.	8a|/L	.	8aa|\L	.	4r	.	.	4r	.	.	4r	.	.	4r	.	.	4r	.	4r	.
.	.	.	8a|/	.	8aa|\	.	.	.	.	.	.	.	.	.	.	.	.	.	.	.	.	.
*	*	*	*	*	*	*	*	*ij	*	*	*	*	*	*	*	*	*	*	*	*	*	*
4c#\	6 r5n	.	8gn|/	.	8ggn|\	.	4c#\	in	.	4A\	in	.	4gn\	in	.	4ee\	in	.	4A/	.	4e\	.
.	.	.	8g|/J	.	8gg|\J	.	.	.	.	.	.	.	.	.	.	.	.	.	.	.	.	.
=18	=18	=18	=18	=18	=18	=18	=18	=18	=18	=18	=18	=18	=18	=18	=18	=18	=18	=18	=18	=18	=18	=18
4d\	.	.	4f#|/	.	4ff#|\	.	4d\	De-	.	4A\	De-	.	4f#\	De-	.	4dd\	De-	.	4d\	.	4f#\	.
4d\	.	.	8r	.	8r	.	4d\	-o	.	4A\	-o	.	4f#\	-o	.	4dd\	-o	.	4d\	.	4f#\	.
.	.	.	(16d/LL	.	(16dd\LL	.	.	.	.	.	.	.	.	.	.	.	.	.	.	.	.	.
.	.	.	16e/JJ)	.	16ee\JJ)	.	.	.	.	.	.	.	.	.	.	.	.	.	.	.	.	.
!	!	!	!	!	!	!	!	!	!	!LO:LB:g=original	!	!	!	!	!	!	!	!	!	!	!	!
4r	.	.	8f#|/L	.	8ff#|\L	.	4r	.	.	4r	.	.	4r	.	.	4r	.	.	4r	.	4r	.
.	.	.	8g#X|/J	.	8gg#X|\J	.	.	.	.	.	.	.	.	.	.	.	.	.	.	.	.	.
4B\	6\ 3	.	(8.g#t/L	.	(8.gg#\L	.	4B\	in	.	4e\	in	.	4g#X\	in	.	4dd\	in	.	4e\	.	4e\	.
.	.	.	32f#/LL	.	32ff#\LL	.	.	.	.	.	.	.	.	.	.	.	.	.	.	.	.	.
.	.	.	32g#/JJJ)	.	32gg#\JJJ)	.	.	.	.	.	.	.	.	.	.	.	.	.	.	.	.	.
=19	=19	=19	=19	=19	=19	=19	=19	=19	=19	=19	=19	=19	=19	=19	=19	=19	=19	=19	=19	=19	=19	=19
!	!	!	!LO:LB:g=original	!	!	!	!	!	!	!	!	!	!	!	!	!	!	!	!	!	!	!
4A\	.	.	4a/	.	4aa|\	.	4A\	De-	.	4e\	De-	.	4a\	De-	.	4cc#\	De-	.	4A/	.	4e\	.
4A\	.	.	8r	.	8r	.	4A\	-o	.	4e\	-o	.	4a\	-o	.	4cc#\	-o	.	4A/	.	4e\	.
!	!	!	!LO:TUP:b:problem=klamra łukowa	!	!LO:TUP:a:problem=klamra łukowa	!	!	!	!	!	!	!	!	!	!	!	!	!	!	!	!	!
!	!	!	!	!	!LO:TUP:a:problem=klamra łukowa, haczyk zamiast numeru	!	!	!	!	!	!	!	!	!	!	!	!	!	!	!	!	!
.	.	.	24e/LL	.	24ee\LL	.	.	.	.	.	.	.	.	.	.	.	.	.	.	.	.	.
.	.	.	24f#/	.	24ff#\	.	.	.	.	.	.	.	.	.	.	.	.	.	.	.	.	.
.	.	.	24g#X/JJ	.	24gg#X\JJ	.	.	.	.	.	.	.	.	.	.	.	.	.	.	.	.	.
4r	.	.	8a|/L	.	8aa|\L	.	4r	.	.	4r	.	.	4r	.	.	4r	.	.	4r	.	4r	.
.	.	.	8a|/	.	8aa|\	.	.	.	.	.	.	.	.	.	.	.	.	.	.	.	.	.
4c#\	6 r5n	.	8gn|/	.	8ggn|\	.	4c#\	in	.	4e\	in	.	4a\	in	.	4ee\	in	.	4A/	.	4e\	.
.	.	.	8g|/J	.	8gg|\J	.	.	.	.	.	.	.	.	.	.	.	.	.	.	.	.	.
=20	=20	=20	=20	=20	=20	=20	=20	=20	=20	=20	=20	=20	=20	=20	=20	=20	=20	=20	=20	=20	=20	=20
!LO:LB:g=original	!	!	!	!	!	!	!	!	!	!	!	!	!	!	!	!	!	!	!	!	!	!
8d\L	.	.	8f#/L	.	8gg\L	.	2d\	De-	.	2d\	De-	.	2a\	De-	.	2ff#\	De-	.	2d\	.	2f#\	.
8d\	.	.	8f#/	.	8ff#\J	.	.	.	.	.	.	.	.	.	.	.	.	.	.	.	.	.
8d\	.	.	8f#/	.	2aa\	.	.	.	.	.	.	.	.	.	.	.	.	.	.	.	.	.
8d\J	.	.	8f#/J	.	.	.	.	.	.	.	.	.	.	.	.	.	.	.	.	.	.	.
*tremolo	*	*	*	*	*	*	*	*	*	*	*	*	*	*	*	*	*	*	*	*	*	*
8c#\L	6	.	8e/L	.	.	.	2c#\	-o	.	2e\	-o	.	2a\	-o	.	2ee\	-o	.	2A/	.	2e\	.
*	*	*	*	*	*	*	*	*Xij	*	*	*Xij	*	*	*Xij	*	*	*Xij	*	*	*	*	*
8c#\	.	.	8e/	.	.	.	.	.	.	.	.	.	.	.	.	.	.	.	.	.	.	.
8c#\	.	.	8a/	.	16aa\LL	.	.	.	.	.	.	.	.	.	.	.	.	.	.	.	.	.
.	.	.	.	.	16gg\	.	.	.	.	.	.	.	.	.	.	.	.	.	.	.	.	.
8c#\J	.	.	8a/J	.	16ff#\	.	.	.	.	.	.	.	.	.	.	.	.	.	.	.	.	.
.	.	.	.	.	16ee\JJ	.	.	.	.	.	.	.	.	.	.	.	.	.	.	.	.	.
*Xtremolo	*	*	*	*	*	*	*	*	*	*	*	*	*	*	*	*	*	*	*	*	*	*
=21	=21	=21	=21	=21	=21	=21	=21	=21	=21	=21	=21	=21	=21	=21	=21	=21	=21	=21	=21	=21	=21	=21
8B\L	6\_ 3_	.	8dd\L	.	8ff#\L	.	2B\	Sa-	.	2e\	Sa-	.	2g#X\	Sa-	.	2dd\	Sa-	.	2e\	.	1e	.
8B\	x x	.	8dd\	.	8gg#X\J	.	.	.	.	.	.	.	.	.	.	.	.	.	.	.	.	.
8B\	x x	.	8dd\	.	4.gg#\	.	.	.	.	.	.	.	.	.	.	.	.	.	.	.	.	.
8B\J	x x	.	8dd\J	.	.	.	.	.	.	.	.	.	.	.	.	.	.	.	.	.	.	.
*tremolo	*	*	*tremolo	*	*	*	*	*	*	*	*	*	*	*	*	*	*	*	*	*	*	*
8A\L	.	.	8cc#\L	.	.	.	2A\	-lu-	.	2e\	-lu-	.	2a\	-lu-	.	2cc#\	-lu-	.	2A/	.	.	.
8A\	.	.	8cc#\	.	8aa\	.	.	.	.	.	.	.	.	.	.	.	.	.	.	.	.	.
8A\	.	.	8cc#\	.	8aa\L	.	.	.	.	.	.	.	.	.	.	.	.	.	.	.	.	.
8A\J	.	.	8cc#\J	.	16gg#\L	.	.	.	.	.	.	.	.	.	.	.	.	.	.	.	.	.
.	.	.	.	.	16aa\JJ	.	.	.	.	.	.	.	.	.	.	.	.	.	.	.	.	.
*Xtremolo	*	*	*Xtremolo	*	*	*	*	*	*	*	*	*	*	*	*	*	*	*	*	*	*	*
=22	=22	=22	=22	=22	=22	=22	=22	=22	=22	=22	=22	=22	=22	=22	=22	=22	=22	=22	=22	=22	=22	=22
!	!	!	!	!	!LO:PB:g=original	!	!	!	!	!	!	!	!	!	!	!	!	!	!	!	!	!
8D\L	6_	.	4b\	.	4ff#\	.	4d\	-ta-	.	4f#\	-ta-	.	4b\	-ta-	.	4dd\	-ta-	.	2d\	.	2f#\	.
8D\	x	.	.	.	.	.	.	.	.	.	.	.	.	.	.	.	.	.	.	.	.	.
8D\	x	.	8dd\L	.	8ff#\L	.	4d\	-ri	.	4f#\	-ri	.	4b\	-ri	.	4dd\	-ri	.	.	.	.	.
8D\J	x	.	16cc#\L	.	16ee\L	.	.	.	.	.	.	.	.	.	.	.	.	.	.	.	.	.
.	.	.	16b\JJ	.	16dd\JJ	.	.	.	.	.	.	.	.	.	.	.	.	.	.	.	.	.
!LO:TX:t=P:problem=mixed beam	!	!	!	!	!	!	!	!	!	!	!	!	!	!	!	!	!	!	!	!	!	!
8E\L	4	.	4a/	.	4cc#\	.	4e\	me-	.	2e\	me-	.	(4a\	me-	.	(4cc#\	me-	.	2e\	.	4e\	.
8E\	.	.	.	.	.	.	.	.	.	.	.	.	.	.	.	.	.	.	.	.	.	.
8EE/	#	.	4g#X/	.	4b\	.	4E\	.	.	.	.	.	4g#X\)	.	.	4b\)	.	.	.	.	4e\	.
8EE/J	.	.	.	.	.	.	.	.	.	.	.	.	.	.	.	.	.	.	.	.	.	.
=23	=23	=23	=23	=23	=23	=23	=23	=23	=23	=23	=23	=23	=23	=23	=23	=23	=23	=23	=23	=23	=23	=23
!	!	!	!	!	!LO:TX:a:i:t=Solo	!	!	!	!	!	!	!	!	!	!	!	!	!	!	!	!	!
!	!	!	!	!	!	!	!	!	!	!	!	!	!LO:LB:g=original	!	!	!	!	!	!	!	!	!
!	!	!LO:DY:a:t=p.	!	!	!	!	!	!	!	!	!	!	!	!	!	!	!	!	!	!	!	!
4AA/	.	p	4a/	.	8cc#\L	.	2A\	-o	.	2e\	-o	.	4a\	-o	.	4cc#\	-o	.	4A/	.	4e\	.
.	.	.	.	.	8ee\J	.	.	.	.	.	.	.	.	.	.	.	.	.	.	.	.	.
4A\	.	.	4e/	.	4cc#\	.	.	.	.	.	.	.	4r	.	.	4r	.	.	4A/	.	4e\	.
!	!	!	!LO:TX:a:i:t=Solo	!	!	!	!	!	!	!	!	!	!	!	!	!	!	!	!	!	!	!
4AA/	.	.	8r	.	8r	.	2r	.	.	2r	.	.	2r	.	.	2r	.	.	2r	.	2r	.
.	.	.	8e|/L	.	8ee|\L	.	.	.	.	.	.	.	.	.	.	.	.	.	.	.	.	.
4r	.	.	8e|/	.	8ee|\	.	.	.	.	.	.	.	.	.	.	.	.	.	.	.	.	.
.	.	.	8e|/J	.	8ee|\J	.	.	.	.	.	.	.	.	.	.	.	.	.	.	.	.	.
=24	=24	=24	=24	=24	=24	=24	=24	=24	=24	=24	=24	=24	=24	=24	=24	=24	=24	=24	=24	=24	=24	=24
4r	.	.	8e/L	.	(8ee\L	.	1r	.	.	1r	.	.	1r	.	.	1r	.	.	1r	.	1r	.
.	.	.	8d/J	.	8dd\J)	.	.	.	.	.	.	.	.	.	.	.	.	.	.	.	.	.
4G#X\	6_ 5_	.	4B/	.	4b|\	.	.	.	.	.	.	.	.	.	.	.	.	.	.	.	.	.
4G#\	x x	.	8r	.	8r	.	.	.	.	.	.	.	.	.	.	.	.	.	.	.	.	.
.	.	.	8e|/L	.	8ee|\L	.	.	.	.	.	.	.	.	.	.	.	.	.	.	.	.	.
4G#\	x x	.	8e|/	.	8ee|\	.	.	.	.	.	.	.	.	.	.	.	.	.	.	.	.	.
.	.	.	8e|/J	.	8ee|\J	.	.	.	.	.	.	.	.	.	.	.	.	.	.	.	.	.
=25	=25	=25	=25	=25	=25	=25	=25	=25	=25	=25	=25	=25	=25	=25	=25	=25	=25	=25	=25	=25	=25	=25
!	!	!	!LO:LB:g=original	!	!	!	!	!	!	!	!	!	!	!	!	!	!	!	!	!	!	!
4r	.	.	(8e/L	.	(8ee\L	.	1r	.	.	1r	.	.	1r	.	.	1r	.	.	1r	.	1r	.
.	.	.	8d/J)	.	8dd\J)	.	.	.	.	.	.	.	.	.	.	.	.	.	.	.	.	.
4A\	.	.	4c#|/	.	4cc#|\	.	.	.	.	.	.	.	.	.	.	.	.	.	.	.	.	.
4A\	.	.	8r	.	8r	.	.	.	.	.	.	.	.	.	.	.	.	.	.	.	.	.
.	.	.	8e|/L	.	8ee|\L	.	.	.	.	.	.	.	.	.	.	.	.	.	.	.	.	.
4A\	.	.	8e|/	.	8ee|\	.	.	.	.	.	.	.	.	.	.	.	.	.	.	.	.	.
.	.	.	8e|/J	.	8ee|\J	.	.	.	.	.	.	.	.	.	.	.	.	.	.	.	.	.
=26	=26	=26	=26	=26	=26	=26	=26	=26	=26	=26	=26	=26	=26	=26	=26	=26	=26	=26	=26	=26	=26	=26
4r	.	.	(8e#X/L	.	(8ee#X\L	.	1r	.	.	1r	.	.	1r	.	.	1r	.	.	1r	.	1r	.
.	.	.	8f#/J)	.	8ff#\)	.	.	.	.	.	.	.	.	.	.	.	.	.	.	.	.	.
4D\	6	.	8dd\L	.	(8ff#\	.	.	.	.	.	.	.	.	.	.	.	.	.	.	.	.	.
.	.	.	8b\J	.	8dd\J)	.	.	.	.	.	.	.	.	.	.	.	.	.	.	.	.	.
4E\	4	.	8b/L	.	8dd\L	.	.	.	.	.	.	.	.	.	.	.	.	.	.	.	.	.
.	.	.	8a/	.	8cc#\	.	.	.	.	.	.	.	.	.	.	.	.	.	.	.	.	.
4EE/	#	.	8a/	.	8cc#\	.	.	.	.	.	.	.	.	.	.	.	.	.	.	.	.	.
.	.	.	8g#X/J	.	8b\J	.	.	.	.	.	.	.	.	.	.	.	.	.	.	.	.	.
=27	=27	=27	=27	=27	=27	=27	=27	=27	=27	=27	=27	=27	=27	=27	=27	=27	=27	=27	=27	=27	=27	=27
!	!	!	!	!LO:DY:a:t=p.	!	!LO:DY:a:t=p.	!	!	!	!	!	!	!	!	!	!LO:TX:a:i:t=Solo	!	!	!	!	!	!
!	!	!	!	!	!	!	!	!	!	!	!	!	!	!	!	!LO:LB:g=original	!	!	!	!	!	!
4AA/	.	.	8c#|/L	p	2cc#\	p	1r	.	.	1r	.	.	1r	.	.	2cc#\	Qui-	.	1r	.	1r	.
.	.	.	8e|/	.	.	.	.	.	.	.	.	.	.	.	.	.	.	.	.	.	.	.
!	!	!LO:DY:a:t=p.	!	!	!	!	!	!	!	!	!	!	!	!	!	!	!	!	!	!	!	!
4r	.	p	8g|/	.	.	.	.	.	.	.	.	.	.	.	.	.	.	.	.	.	.	.
.	.	.	8e|/J	.	.	.	.	.	.	.	.	.	.	.	.	.	.	.	.	.	.	.
4A\	.	.	8c#|/L	.	8cc#\L	.	.	.	.	.	.	.	.	.	.	8cc#\L	-a	.	.	.	.	.
.	.	.	8e|/	.	8b\	.	.	.	.	.	.	.	.	.	.	8b\J	.	.	.	.	.	.
4r	.	.	8a|/	.	8cc#\	.	.	.	.	.	.	.	.	.	.	8cc#\L	res-	.	.	.	.	.
.	.	.	8e|/J	.	8dd\J	.	.	.	.	.	.	.	.	.	.	8dd\J	.	.	.	.	.	.
=28	=28	=28	=28	=28	=28	=28	=28	=28	=28	=28	=28	=28	=28	=28	=28	=28	=28	=28	=28	=28	=28	=28
!LO:LB:g=original	!	!	!	!	!LO:LB:g=original	!	!	!	!	!	!	!	!	!	!	!	!	!	!	!	!	!
4AA/	.	.	8c#|/L	.	2.ee\	.	1r	.	.	1r	.	.	1r	.	.	2.ee\	-pe-	.	1r	.	1r	.
.	.	.	8e|/	.	.	.	.	.	.	.	.	.	.	.	.	.	.	.	.	.	.	.
4r	.	.	8a|/	.	.	.	.	.	.	.	.	.	.	.	.	.	.	.	.	.	.	.
.	.	.	8e|/J	.	.	.	.	.	.	.	.	.	.	.	.	.	.	.	.	.	.	.
4A\	.	.	8c#|/L	.	.	.	.	.	.	.	.	.	.	.	.	.	.	.	.	.	.	.
.	.	.	8e|/	.	.	.	.	.	.	.	.	.	.	.	.	.	.	.	.	.	.	.
4r	.	.	8a|/	.	4cc#\	.	.	.	.	.	.	.	.	.	.	4cc#\	-xit	.	.	.	.	.
.	.	.	8e|/J	.	.	.	.	.	.	.	.	.	.	.	.	.	.	.	.	.	.	.
=29	=29	=29	=29	=29	=29	=29	=29	=29	=29	=29	=29	=29	=29	=29	=29	=29	=29	=29	=29	=29	=29	=29
4E\	#_	.	8B|/L	.	2b\	.	1r	.	.	1r	.	.	1r	.	.	2b\	hu-	.	1r	.	1r	.
.	.	.	8e|/	.	.	.	.	.	.	.	.	.	.	.	.	.	.	.	.	.	.	.
4r	.	.	8g#X|/	.	.	.	.	.	.	.	.	.	.	.	.	.	.	.	.	.	.	.
.	.	.	8e|/J	.	.	.	.	.	.	.	.	.	.	.	.	.	.	.	.	.	.	.
4E\	x	.	8B|/L	.	8b\L	.	.	.	.	.	.	.	.	.	.	8b\L	-mi-	.	.	.	.	.
.	.	.	8e|/	.	8cc#\	.	.	.	.	.	.	.	.	.	.	8cc#\J	.	.	.	.	.	.
4r	.	.	8g#|/	.	8dd\	.	.	.	.	.	.	.	.	.	.	8dd\L	-li-	.	.	.	.	.
.	.	.	8e|/J	.	8ee\J	.	.	.	.	.	.	.	.	.	.	8ee\J	.	.	.	.	.	.
=30	=30	=30	=30	=30	=30	=30	=30	=30	=30	=30	=30	=30	=30	=30	=30	=30	=30	=30	=30	=30	=30	=30
!	!	!	!LO:LB:g=original	!	!	!	!	!	!	!	!	!	!	!	!	!	!	!	!	!	!	!
4A\	4	.	8B|/L	.	4.dd\	.	1r	.	.	1r	.	.	1r	.	.	2dd\	-ta-	.	1r	.	1r	.
.	.	.	8e|/	.	.	.	.	.	.	.	.	.	.	.	.	.	.	.	.	.	.	.
4r	.	.	8g#X|/	.	.	.	.	.	.	.	.	.	.	.	.	.	.	.	.	.	.	.
.	.	.	8e|/J	.	16cc#\LL	.	.	.	.	.	.	.	.	.	.	.	.	.	.	.	.	.
.	.	.	.	.	16dd\JJ	.	.	.	.	.	.	.	.	.	.	.	.	.	.	.	.	.
4AA/	3	.	8B|/L	.	4cc#\	.	.	.	.	.	.	.	.	.	.	4cc#\	-tem	.	.	.	.	.
.	.	.	8e|/	.	.	.	.	.	.	.	.	.	.	.	.	.	.	.	.	.	.	.
4r	.	.	8a|/	.	4r	.	.	.	.	.	.	.	.	.	.	4r	.	.	.	.	.	.
.	.	.	8e|/J	.	.	.	.	.	.	.	.	.	.	.	.	.	.	.	.	.	.	.
=31	=31	=31	=31	=31	=31	=31	=31	=31	=31	=31	=31	=31	=31	=31	=31	=31	=31	=31	=31	=31	=31	=31
4AA/	.	.	8c#|/L	.	2cc#\	.	1r	.	.	1r	.	.	1r	.	.	2cc#\	hu-	.	1r	.	1r	.
.	.	.	8e|/	.	.	.	.	.	.	.	.	.	.	.	.	.	.	.	.	.	.	.
4r	.	.	8a|/	.	.	.	.	.	.	.	.	.	.	.	.	.	.	.	.	.	.	.
.	.	.	8e|/J	.	.	.	.	.	.	.	.	.	.	.	.	.	.	.	.	.	.	.
4A\	.	.	8c#|/L	.	8cc#\L	.	.	.	.	.	.	.	.	.	.	8cc#\L	-mi-	.	.	.	.	.
.	.	.	8e|/	.	8b\	.	.	.	.	.	.	.	.	.	.	8b\J	.	.	.	.	.	.
4r	.	.	8a|/	.	8cc#\	.	.	.	.	.	.	.	.	.	.	8cc#\L	-li-	.	.	.	.	.
.	.	.	8e|/J	.	8dd\J	.	.	.	.	.	.	.	.	.	.	8dd\J	.	.	.	.	.	.
=32	=32	=32	=32	=32	=32	=32	=32	=32	=32	=32	=32	=32	=32	=32	=32	=32	=32	=32	=32	=32	=32	=32
4AA/	.	.	8c#|/L	.	2.ee\	.	1r	.	.	1r	.	.	1r	.	.	2.ee\	-ta-	.	1r	.	1r	.
.	.	.	8e|/	.	.	.	.	.	.	.	.	.	.	.	.	.	.	.	.	.	.	.
4r	.	.	8a|/	.	.	.	.	.	.	.	.	.	.	.	.	.	.	.	.	.	.	.
.	.	.	8e|/J	.	.	.	.	.	.	.	.	.	.	.	.	.	.	.	.	.	.	.
4A\	.	.	8c#|/L	.	.	.	.	.	.	.	.	.	.	.	.	.	.	.	.	.	.	.
.	.	.	8e|/	.	.	.	.	.	.	.	.	.	.	.	.	.	.	.	.	.	.	.
4r	.	.	8a|/	.	4cc#\	.	.	.	.	.	.	.	.	.	.	4cc#\	-tem	.	.	.	.	.
.	.	.	8e|/J	.	.	.	.	.	.	.	.	.	.	.	.	.	.	.	.	.	.	.
=33	=33	=33	=33	=33	=33	=33	=33	=33	=33	=33	=33	=33	=33	=33	=33	=33	=33	=33	=33	=33	=33	=33
4E\	7_ #_	.	8B|/L	.	2b\	.	1r	.	.	1r	.	.	1r	.	.	2b\	an-	.	1r	.	1r	.
.	.	.	8e|/	.	.	.	.	.	.	.	.	.	.	.	.	.	.	.	.	.	.	.
4r	.	.	8g#X|/	.	.	.	.	.	.	.	.	.	.	.	.	.	.	.	.	.	.	.
.	.	.	8e|/J	.	.	.	.	.	.	.	.	.	.	.	.	.	.	.	.	.	.	.
4E\	x x	.	8B|/L	.	8b\L	.	.	.	.	.	.	.	.	.	.	8b\L	-cil-	.	.	.	.	.
.	.	.	8e|/	.	8cc#\	.	.	.	.	.	.	.	.	.	.	8cc#\J	.	.	.	.	.	.
!	!	!	!	!	!	!	!	!	!	!	!	!	!	!	!	!LO:LB:g=original	!	!	!	!	!	!
4r	.	.	8g#|/	.	8dd\	.	.	.	.	.	.	.	.	.	.	8dd\L	-le	.	.	.	.	.
.	.	.	8e|/J	.	8ee\J	.	.	.	.	.	.	.	.	.	.	8ee\J	.	.	.	.	.	.
=34	=34	=34	=34	=34	=34	=34	=34	=34	=34	=34	=34	=34	=34	=34	=34	=34	=34	=34	=34	=34	=34	=34
!	!	!	!	!	!	!	!	!	!	!	!	!	!	!	!	!LO:N:vis=2.	!	!	!	!	!	!
4r	.	.	8B|/L	.	4.dd\	.	1r	.	.	1r	.	.	1r	.	.	2dd\	Su-	.	1r	.	1r	.
.	.	.	8e|/	.	.	.	.	.	.	.	.	.	.	.	.	.	.	.	.	.	.	.
4G#X\	6 5	.	8g#X|/	.	.	.	.	.	.	.	.	.	.	.	.	.	.	.	.	.	.	.
.	.	.	8e|/J	.	16cc#\LL	.	.	.	.	.	.	.	.	.	.	.	.	.	.	.	.	.
.	.	.	.	.	16dd\JJ	.	.	.	.	.	.	.	.	.	.	.	.	.	.	.	.	.
4A\	.	.	8c#|/L	.	4cc#\	.	.	.	.	.	.	.	.	.	.	4cc#\	-e	.	.	.	.	.
.	.	.	8e|/	.	.	.	.	.	.	.	.	.	.	.	.	.	.	.	.	.	.	.
4AA/	.	.	8a|/	.	4r	.	.	.	.	.	.	.	.	.	.	4r	.	.	.	.	.	.
.	.	.	8e|/J	.	.	.	.	.	.	.	.	.	.	.	.	.	.	.	.	.	.	.
=35	=35	=35	=35	=35	=35	=35	=35	=35	=35	=35	=35	=35	=35	=35	=35	=35	=35	=35	=35	=35	=35	=35
!	!	!	!LO:LB:g=original	!	!	!	!	!	!	!	!	!	!	!	!	!	!	!	!	!	!	!
4G#X\	6_ 5_	.	8B|/L	.	2.b\	.	1r	.	.	1r	.	.	1r	.	.	2.b\	Ec-	.	1r	.	1r	.
.	.	.	8e|/	.	.	.	.	.	.	.	.	.	.	.	.	.	.	.	.	.	.	.
4r	.	.	8g#X|/	.	.	.	.	.	.	.	.	.	.	.	.	.	.	.	.	.	.	.
.	.	.	8e|/J	.	.	.	.	.	.	.	.	.	.	.	.	.	.	.	.	.	.	.
4G#\	x x	.	8B|/L	.	.	.	.	.	.	.	.	.	.	.	.	.	.	.	.	.	.	.
.	.	.	8e|/	.	.	.	.	.	.	.	.	.	.	.	.	.	.	.	.	.	.	.
4r	.	.	8g#|/	.	8ee\L	.	.	.	.	.	.	.	.	.	.	8ee\L	-ce	.	.	.	.	.
.	.	.	8e|/J	.	8dd\J	.	.	.	.	.	.	.	.	.	.	8dd\J	.	.	.	.	.	.
=36	=36	=36	=36	=36	=36	=36	=36	=36	=36	=36	=36	=36	=36	=36	=36	=36	=36	=36	=36	=36	=36	=36
!	!	!	!	!	!LO:LB:g=original	!	!	!	!	!	!	!	!	!	!	!	!	!	!	!	!	!
4A\	.	.	8c#|/L	.	8dd\L	.	1r	.	.	1r	.	.	1r	.	.	8dd\L	e-	.	1r	.	1r	.
.	.	.	8e|/	.	8cc#\	.	.	.	.	.	.	.	.	.	.	8cc#\	.	.	.	.	.	.
4r	.	.	8a|/	.	8b\	.	.	.	.	.	.	.	.	.	.	8b\	.	.	.	.	.	.
.	.	.	8e|/J	.	8cc#\J	.	.	.	.	.	.	.	.	.	.	8cc#\J	.	.	.	.	.	.
4A\	.	.	8c#|/L	.	4a/	.	.	.	.	.	.	.	.	.	.	4a\	-nim	.	.	.	.	.
.	.	.	8e|/	.	.	.	.	.	.	.	.	.	.	.	.	.	.	.	.	.	.	.
4r	.	.	8a|/	.	4a/	.	.	.	.	.	.	.	.	.	.	4a\	ex	.	.	.	.	.
.	.	.	8e|/J	.	.	.	.	.	.	.	.	.	.	.	.	.	.	.	.	.	.	.
=37	=37	=37	=37	=37	=37	=37	=37	=37	=37	=37	=37	=37	=37	=37	=37	=37	=37	=37	=37	=37	=37	=37
4G#X\	6_ 5_	.	8B|/L	.	2.b\	.	1r	.	.	1r	.	.	1r	.	.	2.b\	hoc	.	1r	.	1r	.
.	.	.	8e|/	.	.	.	.	.	.	.	.	.	.	.	.	.	.	.	.	.	.	.
4r	.	.	8g#X|/	.	.	.	.	.	.	.	.	.	.	.	.	.	.	.	.	.	.	.
.	.	.	8e|/J	.	.	.	.	.	.	.	.	.	.	.	.	.	.	.	.	.	.	.
4G#\	x x	.	8B|/L	.	.	.	.	.	.	.	.	.	.	.	.	.	.	.	.	.	.	.
.	.	.	8e|/	.	.	.	.	.	.	.	.	.	.	.	.	.	.	.	.	.	.	.
4r	.	.	8g#|/	.	8ee\L	.	.	.	.	.	.	.	.	.	.	8ee\L	be-	.	.	.	.	.
.	.	.	8e|/J	.	8dd\J	.	.	.	.	.	.	.	.	.	.	8dd\J	.	.	.	.	.	.
=38	=38	=38	=38	=38	=38	=38	=38	=38	=38	=38	=38	=38	=38	=38	=38	=38	=38	=38	=38	=38	=38	=38
!LO:LB:g=original	!	!	!	!	!	!	!	!	!	!	!	!	!	!	!	!	!	!	!	!	!	!
4A\	.	.	8c#|/L	.	8dd\L	.	1r	.	.	1r	.	.	1r	.	.	8dd\L	-a-	.	1r	.	1r	.
.	.	.	8e|/	.	8cc#\	.	.	.	.	.	.	.	.	.	.	8cc#\	.	.	.	.	.	.
4r	.	.	8a|/	.	8b\	.	.	.	.	.	.	.	.	.	.	8b\	.	.	.	.	.	.
.	.	.	8e|/J	.	8cc#\J	.	.	.	.	.	.	.	.	.	.	8cc#\J	.	.	.	.	.	.
4A\	.	.	8c#|/L	.	4a/	.	.	.	.	.	.	.	.	.	.	4a\	-tum	.	.	.	.	.
.	.	.	8e|/	.	.	.	.	.	.	.	.	.	.	.	.	.	.	.	.	.	.	.
4r	.	.	8a|/	.	4ee\	.	.	.	.	.	.	.	.	.	.	4ee\	ec-	.	.	.	.	.
.	.	.	8e|/J	.	.	.	.	.	.	.	.	.	.	.	.	.	.	.	.	.	.	.
=39	=39	=39	=39	=39	=39	=39	=39	=39	=39	=39	=39	=39	=39	=39	=39	=39	=39	=39	=39	=39	=39	=39
4A\	6_ 4_	.	8d|/L	.	2ff#\	.	1r	.	.	1r	.	.	1r	.	.	2ff#\	-ce	.	1r	.	1r	.
.	.	.	8f#|/	.	.	.	.	.	.	.	.	.	.	.	.	.	.	.	.	.	.	.
4r	.	.	8a|/	.	.	.	.	.	.	.	.	.	.	.	.	.	.	.	.	.	.	.
.	.	.	8f#|/J	.	.	.	.	.	.	.	.	.	.	.	.	.	.	.	.	.	.	.
4A\	x x	.	8d|/L	.	4aa\	.	.	.	.	.	.	.	.	.	.	4aa\	e-	.	.	.	.	.
.	.	.	8f#|/	.	.	.	.	.	.	.	.	.	.	.	.	.	.	.	.	.	.	.
!	!	!	!	!	!	!	!	!	!	!	!	!	!	!	!	!LO:SIC:v:s=8gg#	!	!	!	!	!	!
4r	.	.	8a|/	.	8gg#X\L	.	.	.	.	.	.	.	.	.	.	8gg\L	.	.	.	.	.	.
.	.	.	8f#|/J	.	8ff#\J	.	.	.	.	.	.	.	.	.	.	8ff#\J	.	.	.	.	.	.
=40	=40	=40	=40	=40	=40	=40	=40	=40	=40	=40	=40	=40	=40	=40	=40	=40	=40	=40	=40	=40	=40	=40
!	!	!	!	!	!	!	!	!	!	!	!	!	!	!	!	!LO:LB:g=original	!	!	!	!	!	!
4A\	3_	.	8c#|/L	.	2.ee\	.	1r	.	.	1r	.	.	1r	.	.	2.ee\	-nim	.	1r	.	1r	.
.	.	.	8e|/	.	.	.	.	.	.	.	.	.	.	.	.	.	.	.	.	.	.	.
4r	.	.	8a|/	.	.	.	.	.	.	.	.	.	.	.	.	.	.	.	.	.	.	.
.	.	.	8e|/J	.	.	.	.	.	.	.	.	.	.	.	.	.	.	.	.	.	.	.
!	!	!	!LO:LB:g=original	!	!	!	!	!	!	!	!	!	!	!	!	!	!	!	!	!	!	!
4AA/	x	.	8c#|/L	.	.	.	.	.	.	.	.	.	.	.	.	.	.	.	.	.	.	.
.	.	.	8e|/	.	.	.	.	.	.	.	.	.	.	.	.	.	.	.	.	.	.	.
4r	.	.	8a|/	.	4cc#\	.	.	.	.	.	.	.	.	.	.	4cc#\	ex	.	.	.	.	.
.	.	.	8e|/J	.	.	.	.	.	.	.	.	.	.	.	.	.	.	.	.	.	.	.
=41	=41	=41	=41	=41	=41	=41	=41	=41	=41	=41	=41	=41	=41	=41	=41	=41	=41	=41	=41	=41	=41	=41
4D\	6_	.	8f#|/L	.	4dd\	.	1r	.	.	1r	.	.	1r	.	.	4dd\	hoc	.	1r	.	1r	.
.	.	.	8b|/	.	.	.	.	.	.	.	.	.	.	.	.	.	.	.	.	.	.	.
4D\	x	.	8dd|/	.	8ff#\L	.	.	.	.	.	.	.	.	.	.	8ff#\L	be-	.	.	.	.	.
.	.	.	8b|/J	.	8dd\J	.	.	.	.	.	.	.	.	.	.	8dd\J	.	.	.	.	.	.
4E\	4	.	4a/	.	4cc#\	.	.	.	.	.	.	.	.	.	.	(4cc#\	-a-	.	.	.	.	.
4EE/	#	.	4g#X/	.	4b\	.	.	.	.	.	.	.	.	.	.	4b\)	.	.	.	.	.	.
=42	=42	=42	=42	=42	=42	=42	=42	=42	=42	=42	=42	=42	=42	=42	=42	=42	=42	=42	=42	=42	=42	=42
!	!	!	!	!	!	!LO:DY:a:t=for.	!	!	!	!	!	!	!	!	!	!	!	!	!	!	!	!
4AA/	.	.	4a/	.	4cc#\	f	1r	.	.	1r	.	.	1r	.	.	4cc#\	-tum	.	1r	.	1r	.
4r	.	.	4a/	.	4aa\	.	.	.	.	.	.	.	.	.	.	4aa\	me	.	.	.	.	.
!LO:TX:a:i:t=tutti	!	!	!	!LO:DY:a:t=for	!	!	!	!	!	!	!	!	!	!	!	!	!	!	!	!	!	!
2r	.	.	8a/L	f	8aa\L	.	.	.	.	.	.	.	.	.	.	8aa\L	di-	.	.	.	.	.
.	.	.	8gn/	.	8ggn\	.	.	.	.	.	.	.	.	.	.	8ggn\J	.	.	.	.	.	.
.	.	.	8f#/	.	8ff#\	.	.	.	.	.	.	.	.	.	.	8ff#\L	-cent	.	.	.	.	.
.	.	.	8e/J	.	8ee\J	.	.	.	.	.	.	.	.	.	.	8ee\J	.	.	.	.	.	.
=43	=43	=43	=43	=43	=43	=43	=43	=43	=43	=43	=43	=43	=43	=43	=43	=43	=43	=43	=43	=43	=43	=43
4r	.	.	2.d#X/	.	2.dd#X\	.	4r	.	.	4r	.	.	4r	.	.	2.dd#X\	o-	.	1r	.	1r	.
4A\	r4# 2	.	.	.	.	.	4A\	om-	.	2.f#\	o-	.	2.b\	o-	.	.	.	.	.	.	.	.
8Gn\L	.	.	.	.	.	.	8Gn\L	.	.	.	.	.	.	.	.	.	.	.	.	.	.	.
8F#\	.	.	.	.	.	.	8F#\	.	.	.	.	.	.	.	.	.	.	.	.	.	.	.
8E\	.	.	8e/L	.	8ee\L	.	8E\	.	.	.	.	.	.	.	.	8ee\L	.	.	.	.	.	.
8D#X\J	.	.	8f#/J	.	8ff#\J	.	8D#X\J	.	.	.	.	.	.	.	.	8ff#\J	.	.	.	.	.	.
=44	=44	=44	=44	=44	=44	=44	=44	=44	=44	=44	=44	=44	=44	=44	=44	=44	=44	=44	=44	=44	=44	=44
!	!	!	!	!	!	!	!LO:LB:g=original	!	!	!	!	!	!	!	!	!	!	!	!	!	!	!
!	!	!	!	!	!LO:LB:g=original	!	!	!	!	!	!	!	!	!	!	!	!	!	!	!	!	!
4E\	n	.	4g/	.	4gg\	.	4E\	-nes	.	4g\	-mnes	.	4b\	-mnes	.	4gg\	-mnes	.	1r	.	1r	.
4r	.	.	4g/	.	4gg\	.	4r	.	.	4r	.	.	4r	.	.	4gg\	me	.	.	.	.	.
2r	.	.	8g/L	.	8gg\L	.	2r	.	.	2r	.	.	2r	.	.	8gg\L	di-	.	.	.	.	.
.	.	.	8f#/	.	8ff#\	.	.	.	.	.	.	.	.	.	.	8ff#\J	.	.	.	.	.	.
.	.	.	8e/	.	8ee\	.	.	.	.	.	.	.	.	.	.	8ee\L	-cent	.	.	.	.	.
.	.	.	8dn/J	.	8ddn\J	.	.	.	.	.	.	.	.	.	.	8ddn\J	.	.	.	.	.	.
=45	=45	=45	=45	=45	=45	=45	=45	=45	=45	=45	=45	=45	=45	=45	=45	=45	=45	=45	=45	=45	=45	=45
4r	.	.	2.c#/	.	2.cc#\	.	4r	.	.	4r	.	.	4r	.	.	2.cc#\	om-	.	1r	.	1r	.
*	*	*	*	*	*	*	*	*	*	*	*ij	*	*	*ij	*	*	*	*	*	*	*	*
4G\	4_ 2_	.	.	.	.	.	4G\	om-	.	2.e\	o-	.	2.a\	o-	.	.	.	.	.	.	.	.
8F#\L	x x	.	.	.	.	.	8F#\L	.	.	.	.	.	.	.	.	.	.	.	.	.	.	.
8E\	x x	.	.	.	.	.	8E\	.	.	.	.	.	.	.	.	.	.	.	.	.	.	.
8Dn\	x x	.	8d/L	.	8dd\L	.	8Dn\	.	.	.	.	.	.	.	.	8dd\L	.	.	.	.	.	.
8C#\J	x x	.	8e/J	.	8ee\J	.	8C#\J	.	.	.	.	.	.	.	.	8ee\J	.	.	.	.	.	.
=46	=46	=46	=46	=46	=46	=46	=46	=46	=46	=46	=46	=46	=46	=46	=46	=46	=46	=46	=46	=46	=46	=46
!	!	!	!	!	!	!	!	!	!	!	!	!	!	!	!	!LO:LB:g=original	!	!	!	!	!	!
4D\	.	.	4f#/	.	4ff#\	.	4D\	-nes	.	4d\	-mnes	.	4a\	-mnes	.	4ff#\	-nes	.	1r	.	1r	.
*	*	*	*	*	*	*	*	*	*	*	*Xij	*	*	*Xij	*	*	*	*	*	*	*	*
4r	.	.	4a/	.	4ff#\	.	4r	.	.	4r	.	.	4a\	.	.	4ff#\	ge-	.	.	.	.	.
4r	.	.	8b/L	.	8gg\L	.	4r	.	.	4r	.	.	8b\L	ge-	.	8gg\L	.	.	.	.	.	.
.	.	.	8a/	.	8ff#\	.	.	.	.	.	.	.	8a\J	.	.	8ff#\J	.	.	.	.	.	.
4D\	.	.	8g/	.	8ee\	.	4D\	om-	.	[4A\	om-	.	8g\L	-ne-	.	8ee\L	-ne-	.	.	.	.	.
.	.	.	8f#/J	.	8dd\J	.	.	.	.	.	.	.	8f#\J	.	.	8dd\J	.	.	.	.	.	.
=47	=47	=47	=47	=47	=47	=47	=47	=47	=47	=47	=47	=47	=47	=47	=47	=47	=47	=47	=47	=47	=47	=47
!	!	!	!	!	!	!	!	!	!	!LO:TX:t=P:problem=brak zakończenia ligatury po łamaniu systemu	!	!	!	!	!	!	!	!	!	!	!	!
!	!	!	!	!	!	!	!	!	!	!LO:LB:g=original	!	!	!	!	!	!	!	!	!	!	!	!
!LO:LB:g=original	!	!	!LO:LB:g=original	!	!	!	!	!	!	!	!	!	!	!	!	!	!	!	!	!	!	!
2.A\	6:7_ 4:5_	.	4f#/	.	4dd\	.	2.A\	.	.	2.A\]	.	.	4f#\	-ra-	.	4dd\	-ra-	.	1r	.	1r	.
.	.	.	8e/L	.	8cc#\L	.	.	.	.	.	.	.	8e\L	.	.	8cc#\L	.	.	.	.	.	.
.	.	.	8f#/J	.	8dd\J	.	.	.	.	.	.	.	8f#\J	.	.	8dd\J	.	.	.	.	.	.
!	!	!	!	!	!LO:TX:t=P:problem=kropka połączona ligaturą za kreską	!	!	!	!	!	!	!	!	!	!	!	!	!	!	!	!	!
.	.	.	[2g/	.	2.ee\	.	.	.	.	.	.	.	[<2g\	.	.	[<2ee\	.	.	.	.	.	.
4AA/	x x	.	.	.	.	.	4A\	-nes	.	4A\	-mnes	.	.	.	.	.	.	.	.	.	.	.
=48	=48	=48	=48	=48	=48	=48	=48	=48	=48	=48	=48	=48	=48	=48	=48	=48	=48	=48	=48	=48	=48	=48
2.D\	4:5_ 2:3_	.	4g/]	.	.	.	2.d\	ge-	.	2.A\	ge-	.	4g\]	.	.	4ee\]	.	.	1r	.	1r	.
.	.	.	8f#/L	.	8dd\L	.	.	.	.	.	.	.	8f#\L	.	.	8dd\L	.	.	.	.	.	.
.	.	.	8g/J	.	8ee\J	.	.	.	.	.	.	.	8g\J	.	.	8ee\J	.	.	.	.	.	.
!	!	!	!	!	!LO:TX:t=P:problem=kropka połączona ligaturą za kreską	!	!	!	!	!	!	!	!	!	!	!	!	!	!	!	!	!
!	!	!	!LO:TX:t=P:problem=kropka połączona ligaturą za kreską	!	!	!	!	!	!	!	!	!	!	!	!	!	!	!	!	!	!	!
.	.	.	2.a/	.	2.ff#\	.	.	.	.	.	.	.	[<2a\	.	.	[<2ff#\	.	.	.	.	.	.
4DD/	x x	.	.	.	.	.	4D\	-ne-	.	4A\	-ne-	.	.	.	.	.	.	.	.	.	.	.
=49	=49	=49	=49	=49	=49	=49	=49	=49	=49	=49	=49	=49	=49	=49	=49	=49	=49	=49	=49	=49	=49	=49
!	!	!	!	!	!	!	!	!	!	!	!	!	!LO:LB:g=original	!	!	!	!	!	!	!	!	!
!	!	!	!	!	!	!	!	!	!	!	!	!	!LO:TX:t=P:problem=brak zakończenia ligatury po łamaniu systemu	!	!	!	!	!	!	!	!	!
2GG/	x x	.	.	.	.	.	2.G\	-ra-	.	2B\	-ra-	.	4a\]	.	.	4ff#\]	.	.	1r	.	1r	.
.	.	.	8b/L	.	8gg\L	.	.	.	.	.	.	.	8b\L	.	.	8gg\L	.	.	.	.	.	.
.	.	.	8a/J	.	8ff#\J	.	.	.	.	.	.	.	8a\J	.	.	8ff#\J	.	.	.	.	.	.
4G\	6	.	4g/	.	4ee\	.	.	.	.	2B\	-ti-	.	4g\	.	.	4ee\	.	.	.	.	.	.
4G#X\	5	.	4f#/	.	4dd\	.	4G#X\	-ti-	.	.	.	.	4f#\	ti-	.	4dd\	-ti-	.	.	.	.	.
=50	=50	=50	=50	=50	=50	=50	=50	=50	=50	=50	=50	=50	=50	=50	=50	=50	=50	=50	=50	=50	=50	=50
4A\	4	.	4.f#/	.	4.dd\	.	2A\	-o-	.	2A\	-o-	.	2f#\	-o-	.	2dd\	-o-	.	1r	.	1r	.
4AA/	3	.	.	.	.	.	.	.	.	.	.	.	.	.	.	.	.	.	.	.	.	.
.	.	.	16g/LL	.	16ee\LL	.	.	.	.	.	.	.	.	.	.	.	.	.	.	.	.	.
.	.	.	16f#/JJ	.	16dd\JJ	.	.	.	.	.	.	.	.	.	.	.	.	.	.	.	.	.
8A\L	.	.	4e/	.	4cc#\	.	4AA/	-nes	.	4A\	-nes	.	4e\	-nes	.	4cc#\	-nes	.	.	.	.	.
8Gn\	.	.	.	.	.	.	.	.	.	.	.	.	.	.	.	.	.	.	.	.	.	.
8F#\	.	.	4r	.	4r	.	4r	.	.	4r	.	.	4r	.	.	4r	.	.	.	.	.	.
8E\J	.	.	.	.	.	.	.	.	.	.	.	.	.	.	.	.	.	.	.	.	.	.
=51	=51	=51	=51	=51	=51	=51	=51	=51	=51	=51	=51	=51	=51	=51	=51	=51	=51	=51	=51	=51	=51	=51
!	!	!	!	!	!	!	!	!	!	!	!	!	!	!	!	!	!	!	!	!	!LO:LB:g=original	!
!	!	!	!	!	!LO:LB:g=original	!	!	!	!	!	!	!	!	!	!	!	!	!	!	!	!	!
8D\L	.	.	8a/L	.	2d\ 2a 2ff#	.	2D/	qui-	.	2A\	qui-	.	2f#\	qui-	.	2dd\	Qui-	.	2d\	.	2f#\	.
8D\	.	.	8a/	.	.	.	.	.	.	.	.	.	.	.	.	.	.	.	.	.	.	.
8D\	.	.	8a/	.	.	.	.	.	.	.	.	.	.	.	.	.	.	.	.	.	.	.
8D\J	.	.	8a/J	.	.	.	.	.	.	.	.	.	.	.	.	.	.	.	.	.	.	.
*tremolo	*	*	*tremolo	*	*	*	*	*	*	*	*	*	*	*	*	*	*	*	*	*	*	*
8C#/L	6 5	.	8a/L	.	4.gg\	.	2C#/	-a	.	2A\	-a	.	2g\	-a	.	2ee\	-a	.	2A/	.	2e\	.
8C#/	.	.	8a/	.	.	.	.	.	.	.	.	.	.	.	.	.	.	.	.	.	.	.
8C#/	.	.	8a/	.	.	.	.	.	.	.	.	.	.	.	.	.	.	.	.	.	.	.
8C#/J	.	.	8a/J	.	16ff#\LL	.	.	.	.	.	.	.	.	.	.	.	.	.	.	.	.	.
.	.	.	.	.	16gg\JJ	.	.	.	.	.	.	.	.	.	.	.	.	.	.	.	.	.
=52	=52	=52	=52	=52	=52	=52	=52	=52	=52	=52	=52	=52	=52	=52	=52	=52	=52	=52	=52	=52	=52	=52
!	!	!	!	!	!	!	!	!	!	!	!	!	!	!	!	!	!	!	!LO:LB:g=original	!	!	!
8D\L	.	.	8f#/L	.	4.aa\	.	2D\	fe-	.	2A\	fe-	.	2f#\	fe-	.	2dd\	fe-	.	2F#/	.	2d\	.
8D\	.	.	8f#/	.	.	.	.	.	.	.	.	.	.	.	.	.	.	.	.	.	.	.
8D\	.	.	8f#/	.	.	.	.	.	.	.	.	.	.	.	.	.	.	.	.	.	.	.
8D\J	.	.	8f#/J	.	8ff#\	.	.	.	.	.	.	.	.	.	.	.	.	.	.	.	.	.
8F#\L	6	.	8a/L	.	4dd\	.	2F#\	-cit	.	2A\	-cit	.	2f#\	-cit	.	2dd\	-cit	.	2d\	.	2f#\	.
8F#\	.	.	8a/	.	.	.	.	.	.	.	.	.	.	.	.	.	.	.	.	.	.	.
8F#\	.	.	8a/	.	4dd\	.	.	.	.	.	.	.	.	.	.	.	.	.	.	.	.	.
8F#\J	.	.	8a/J	.	.	.	.	.	.	.	.	.	.	.	.	.	.	.	.	.	.	.
=53	=53	=53	=53	=53	=53	=53	=53	=53	=53	=53	=53	=53	=53	=53	=53	=53	=53	=53	=53	=53	=53	=53
!	!	!	!	!	!	!	!	!	!	!	!	!	!	!	!	!LO:LB:g=original	!	!	!	!	!	!
!	!	!	!	!	!	!	!LO:LB:g=original	!	!	!	!	!	!	!	!	!	!	!	!	!	!	!
8G\L	6	.	8b\L	.	4.ee\	.	2G\	mi-	.	2B\	mi-	.	2g\	mi-	.	2ee\	mi-	.	2e\	.	2g\	.
8G\	.	.	8b\	.	.	.	.	.	.	.	.	.	.	.	.	.	.	.	.	.	.	.
8G\	.	.	8b\	.	.	.	.	.	.	.	.	.	.	.	.	.	.	.	.	.	.	.
8G\J	.	.	8b\J	.	16gg\LL	.	.	.	.	.	.	.	.	.	.	.	.	.	.	.	.	.
.	.	.	.	.	16ff#\JJ	.	.	.	.	.	.	.	.	.	.	.	.	.	.	.	.	.
8A\L	3	.	8cc#\L	.	4ee\	.	2A\	-hi	.	2A\	-hi	.	2e\	-hi	.	2cc#\	-hi	.	2A/	.	2e\	.
8A\	.	.	8cc#\	.	.	.	.	.	.	.	.	.	.	.	.	.	.	.	.	.	.	.
8A\	.	.	8cc#\	.	4ee\	.	.	.	.	.	.	.	.	.	.	.	.	.	.	.	.	.
8A\J	.	.	8cc#\J	.	.	.	.	.	.	.	.	.	.	.	.	.	.	.	.	.	.	.
*Xtremolo	*	*	*Xtremolo	*	*	*	*	*	*	*	*	*	*	*	*	*	*	*	*	*	*	*
=54	=54	=54	=54	=54	=54	=54	=54	=54	=54	=54	=54	=54	=54	=54	=54	=54	=54	=54	=54	=54	=54	=54
8D\L	.	.	8a/L	.	4ff#\	.	2D\	ma-	.	2A\	ma-	.	2f#\	ma-	.	2dd\	ma-	.	2F#/	.	2d\	.
8D\	.	.	8a/	.	.	.	.	.	.	.	.	.	.	.	.	.	.	.	.	.	.	.
8D\	.	.	8a/	.	16ff#\LL	.	.	.	.	.	.	.	.	.	.	.	.	.	.	.	.	.
.	.	.	.	.	16ee\	.	.	.	.	.	.	.	.	.	.	.	.	.	.	.	.	.
8D\J	.	.	8a/J	.	16ff#\	.	.	.	.	.	.	.	.	.	.	.	.	.	.	.	.	.
.	.	.	.	.	16gg\JJ	.	.	.	.	.	.	.	.	.	.	.	.	.	.	.	.	.
*tremolo	*	*	*tremolo	*	*	*	*	*	*	*	*	*	*	*	*	*	*	*	*	*	*	*
!	!	!	!LO:LB:g=original	!	!	!	!	!	!	!	!	!	!	!	!	!	!	!	!	!	!	!
8F#\L	6	.	8a/L	.	4aa\	.	4F#\	-gna	.	4A\	-gna	.	4f#\	-gna	.	4dd\	-gna	.	2d\	.	2f#\	.
8F#\	.	.	8a/	.	.	.	.	.	.	.	.	.	.	.	.	.	.	.	.	.	.	.
8F#\	.	.	8a/	.	4dd\	.	4F#\	qui	.	4A\	qui	.	4f#\	qui	.	4dd\	qui	.	.	.	.	.
8F#\J	.	.	8a/J	.	.	.	.	.	.	.	.	.	.	.	.	.	.	.	.	.	.	.
=55	=55	=55	=55	=55	=55	=55	=55	=55	=55	=55	=55	=55	=55	=55	=55	=55	=55	=55	=55	=55	=55	=55
8G\L	6	.	8b\L	.	4.ee\	.	2G\	po-	.	2B\	po-	.	2g\	po-	.	2ee\	po-	.	2e\	.	2g\	.
8G\	.	.	8b\	.	.	.	.	.	.	.	.	.	.	.	.	.	.	.	.	.	.	.
8G\	.	.	8b\	.	.	.	.	.	.	.	.	.	.	.	.	.	.	.	.	.	.	.
8G\J	.	.	8b\J	.	16gg\LL	.	.	.	.	.	.	.	.	.	.	.	.	.	.	.	.	.
.	.	.	.	.	16ff#\JJ	.	.	.	.	.	.	.	.	.	.	.	.	.	.	.	.	.
8A\L	3	.	8cc#\L	.	4ee\	.	2A\	-tens	.	2A\	-tens	.	2e\	-tens	.	2cc#\	-tens	.	2A/	.	2e\	.
8A\	.	.	8cc#\	.	.	.	.	.	.	.	.	.	.	.	.	.	.	.	.	.	.	.
8A\	.	.	8cc#\	.	4ee\	.	.	.	.	.	.	.	.	.	.	.	.	.	.	.	.	.
8A\J	.	.	8cc#\J	.	.	.	.	.	.	.	.	.	.	.	.	.	.	.	.	.	.	.
*Xtremolo	*	*	*Xtremolo	*	*	*	*	*	*	*	*	*	*	*	*	*	*	*	*	*	*	*
=56	=56	=56	=56	=56	=56	=56	=56	=56	=56	=56	=56	=56	=56	=56	=56	=56	=56	=56	=56	=56	=56	=56
4D\	.	.	4dd\	.	4ff#\	.	2D\	est	.	2A\	est	.	2f#\	est	.	2dd\	est	.	4F#/	.	2d\	.
4D\	.	.	8r	.	8r	.	.	.	.	.	.	.	.	.	.	.	.	.	4F#/	.	.	.
*	*	*	*tuplet	*	*	*	*	*	*	*	*	*	*	*	*	*	*	*	*	*	*	*
!	!	!	!LO:TUP:a:problem=klamra łukowa, haczyk zamiast numeru	!	!LO:TUP:a:problem=klamra łukowa, haczyk zamiast numeru	!	!	!	!	!	!	!	!	!	!	!	!	!	!	!	!	!
.	.	.	24a\LL	.	24aa\LL	.	.	.	.	.	.	.	.	.	.	.	.	.	.	.	.	.
.	.	.	24b\	.	24bb\	.	.	.	.	.	.	.	.	.	.	.	.	.	.	.	.	.
.	.	.	24cc#\JJ	.	24ccc#\JJ	.	.	.	.	.	.	.	.	.	.	.	.	.	.	.	.	.
4r	.	.	8dd\L	.	8ddd|\L	.	4r	.	.	4r	.	.	4r	.	.	4r	.	.	4r	.	4r	.
.	.	.	8dd\	.	8ddd|\	.	.	.	.	.	.	.	.	.	.	.	.	.	.	.	.	.
!	!	!	!	!	!	!	!	!	!	!	!	!	!	!	!	!	!	!	!	!	!LO:TX:t=niezgodne piony harmoniczne	!
4F#\	6 r5n	.	8ccn\	.	8cccn|\	.	4F#\	et	.	4d\	et	.	4a\	et	.	4ccn\	et	.	4D/	.	4d\	.
.	.	.	8cc\J	.	8ccc|\J	.	.	.	.	.	.	.	.	.	.	.	.	.	.	.	.	.
=57	=57	=57	=57	=57	=57	=57	=57	=57	=57	=57	=57	=57	=57	=57	=57	=57	=57	=57	=57	=57	=57	=57
!	!	!	!	!	!	!	!	!	!	!	!	!	!LO:LB:g=original	!	!	!	!	!	!	!	!	!
!	!	!	!	!	!	!	!	!	!	!LO:LB:g=original	!	!	!	!	!	!	!	!	!	!	!	!
!LO:LB:g=original	!	!	!	!	!LO:LB:g=original	!	!	!	!	!	!	!	!	!	!	!	!	!	!	!	!	!
4G\	.	.	4b|\	.	4bb|\	.	4G\	San-	.	4d\	San-	.	4g\	San-	.	4b\	San-	.	4D/	.	4d\	.
4G\	.	.	8r	.	8r	.	4G\	-ctu(m)	.	4d\	-ctu(m)	.	4g\	-ctum	.	4b\	-ctu(m)	.	4D/	.	4d\	.
.	.	.	(16g/LL	.	(16gg\LL	.	.	.	.	.	.	.	.	.	.	.	.	.	.	.	.	.
.	.	.	16a/JJ)	.	16aa\JJ)	.	.	.	.	.	.	.	.	.	.	.	.	.	.	.	.	.
4r	.	.	8b|\L	.	8bb|\L	.	4r	.	.	4r	.	.	4r	.	.	4r	.	.	4r	.	4r	.
.	.	.	8cc#X|\J	.	8ccc#X|\J	.	.	.	.	.	.	.	.	.	.	.	.	.	.	.	.	.
*	*	*	*	*	*	*	*	*ij	*	*	*ij	*	*	*ij	*	*	*ij	*	*	*	*	*
4E\	6\ 3	.	8.cc#\L	.	8.ccc#t\L	.	4E\	et	.	4A\	et	.	4g\	et	.	4cc#X\	et	.	4A/	.	4e\	.
.	.	.	32b\LL	.	(32bb\LL	.	.	.	.	.	.	.	.	.	.	.	.	.	.	.	.	.
.	.	.	32cc#\JJJ	.	32ccc#\JJJ)	.	.	.	.	.	.	.	.	.	.	.	.	.	.	.	.	.
=58	=58	=58	=58	=58	=58	=58	=58	=58	=58	=58	=58	=58	=58	=58	=58	=58	=58	=58	=58	=58	=58	=58
4D\	.	.	4dd\	.	4ddd\	.	4D\	San-	.	4A\	San-	.	4f#\	San-	.	4dd\	San-	.	4F#/	.	4d\	.
4D\	.	.	8r	.	8r	.	4D\	-ctu(m)	.	4A\	-ctu(m)	.	4f#\	-ctum	.	4dd\	-ctu(m)	.	4F#/	.	4d\	.
!	!	!	!LO:TUP:a:problem=klamra łukowa, haczyk zamiast numeru	!	!LO:TUP:a:problem=klamra łukowa	!	!	!	!	!	!	!	!	!	!	!	!	!	!	!	!	!
.	.	.	24a\LL	.	24aa\LL	.	.	.	.	.	.	.	.	.	.	.	.	.	.	.	.	.
.	.	.	24b\	.	24bb\	.	.	.	.	.	.	.	.	.	.	.	.	.	.	.	.	.
.	.	.	24cc#\JJ	.	24ccc#\JJ	.	.	.	.	.	.	.	.	.	.	.	.	.	.	.	.	.
4r	.	.	8dd|\L	.	8ddd|\L	.	4r	.	.	4r	.	.	4r	.	.	4r	.	.	4r	.	4r	.
.	.	.	8dd|\	.	8ddd|\	.	.	.	.	.	.	.	.	.	.	.	.	.	.	.	.	.
4F#\	6 r5n	.	8ccn|\	.	8cccn|\	.	4F#\	et	.	4d\	et	.	4a\	et	.	4ccn\	et	.	4D/	.	4d\	.
.	.	.	8cc|\J	.	8ccc|\J	.	.	.	.	.	.	.	.	.	.	.	.	.	.	.	.	.
=59	=59	=59	=59	=59	=59	=59	=59	=59	=59	=59	=59	=59	=59	=59	=59	=59	=59	=59	=59	=59	=59	=59
4G\	.	.	4b|\	.	4bb|\	.	4G\	San-	.	4d\	San-	.	4g\	San-	.	4b\	San-	.	4D/	.	4d\	.
4G\	.	.	8r	.	8r	.	4G\	-ctu(m)	.	4d\	-ctu(m)	.	4g\	-ctum	.	4b\	-ctu(m)	.	4D/	.	4d\	.
.	.	.	(16g/LL	.	(16gg\LL	.	.	.	.	.	.	.	.	.	.	.	.	.	.	.	.	.
.	.	.	16a/JJ)	.	16aa\JJ)	.	.	.	.	.	.	.	.	.	.	.	.	.	.	.	.	.
4r	.	.	8b|\L	.	8bb|\L	.	4r	.	.	4r	.	.	4r	.	.	4r	.	.	4r	.	4r	.
.	.	.	8cc#X|\J	.	8ccc#X|\J	.	.	.	.	.	.	.	.	.	.	.	.	.	.	.	.	.
!	!	!	!LO:LB:g=original	!	!	!	!	!	!	!	!	!	!	!	!	!	!	!	!	!	!	!
4E\	6\ 3	.	(8.cc#\L	.	8.ccc#t\L	.	4E\	et	.	4A\	et	.	4g\	et	.	4cc#X\	et	.	4A/	.	4e\	.
.	.	.	32b\LL	.	(32bb\LL	.	.	.	.	.	.	.	.	.	.	.	.	.	.	.	.	.
.	.	.	32cc#\JJJ)	.	32ccc#\JJJ)	.	.	.	.	.	.	.	.	.	.	.	.	.	.	.	.	.
=60	=60	=60	=60	=60	=60	=60	=60	=60	=60	=60	=60	=60	=60	=60	=60	=60	=60	=60	=60	=60	=60	=60
4D\	.	.	4dd|\	.	4ddd\	.	4D\	San-	.	4A\	San-	.	4f#\	San-	.	4dd\	San-	.	4F#/	.	4d\	.
4D\	.	.	8r	.	8r	.	4D\	-ctu(m)	.	4A\	-ctu(m)	.	4f#\	-ctum	.	4dd\	-ctu(m)	.	4F#/	.	4d\	.
*	*	*	*	*	*	*	*	*Xij	*	*	*	*	*	*	*	*	*	*	*	*	*	*
!	!	!	!LO:TUP:a:problem=klamra łukowa, haczyk zamiast numeru	!	!LO:TUP:a:problem=klamra łukowa, haczyk zamiast numeru	!	!	!	!	!	!	!	!	!	!	!	!	!	!	!	!	!
.	.	.	24a\LL	.	24aa\LL	.	.	.	.	.	.	.	.	.	.	.	.	.	.	.	.	.
.	.	.	24b\	.	24bb\	.	.	.	.	.	.	.	.	.	.	.	.	.	.	.	.	.
.	.	.	24cc#\JJ	.	24ccc#\JJ	.	.	.	.	.	.	.	.	.	.	.	.	.	.	.	.	.
!	!	!	!	!	!	!	!	!	!	!	!	!	!	!	!	!LO:LB:g=original	!	!	!	!	!	!
4r	.	.	8dd|\L	.	8ddd|\L	.	4r	.	.	4r	.	.	4r	.	.	4r	.	.	4r	.	4r	.
.	.	.	8dd|\	.	8ddd|\	.	.	.	.	.	.	.	.	.	.	.	.	.	.	.	.	.
4F#\	6 r5n	.	8ccn|\	.	8cccn|\	.	4F#\	et	.	4A\	et	.	4a\	et	.	4dd\	et	.	4D/	.	4d\	.
.	.	.	8cc|\J	.	8ccc|\J	.	.	.	.	.	.	.	.	.	.	.	.	.	.	.	.	.
=61	=61	=61	=61	=61	=61	=61	=61	=61	=61	=61	=61	=61	=61	=61	=61	=61	=61	=61	=61	=61	=61	=61
!	!	!	!	!	!	!	!LO:LB:g=original	!	!	!	!	!	!	!	!	!	!	!	!	!	!	!
!	!	!	!	!	!LO:SIC:v:s=8ccc\L	!	!	!	!	!	!	!	!	!	!	!	!	!	!	!	!	!
8G\L	.	.	8b\L	.	8ccc#\L	.	2G\	San-	.	2G/	San-	.	2b\	San-	.	2dd\	San-	.	2D/	.	1d	.
8G\	.	.	8b\	.	8bb\J	.	.	.	.	.	.	.	.	.	.	.	.	.	.	.	.	.
8G\	.	.	8b\	.	2ddd\	.	.	.	.	.	.	.	.	.	.	.	.	.	.	.	.	.
8G\J	.	.	8b\J	.	.	.	.	.	.	.	.	.	.	.	.	.	.	.	.	.	.	.
*tremolo	*	*	*	*	*	*	*	*	*	*	*	*	*	*	*	*	*	*	*	*	*	*
8F#\L	6	.	8a\L	.	.	.	2F#\	-ctum	.	2A\	-ctu(m)	.	2a\	-ctum	.	2dd\	-ctu(m)	.	2D/	.	.	.
*	*	*	*	*	*	*	*	*	*	*	*Xij	*	*	*Xij	*	*	*Xij	*	*	*	*	*
8F#\	.	.	8a\	.	.	.	.	.	.	.	.	.	.	.	.	.	.	.	.	.	.	.
!	!	!	!	!	!LO:LB:g=original	!	!	!	!	!	!	!	!	!	!	!	!	!	!	!	!	!
8F#\	.	.	8dd\	.	16ddd\LL	.	.	.	.	.	.	.	.	.	.	.	.	.	.	.	.	.
.	.	.	.	.	16ccc#\	.	.	.	.	.	.	.	.	.	.	.	.	.	.	.	.	.
8F#\J	.	.	8dd\J	.	16bb\	.	.	.	.	.	.	.	.	.	.	.	.	.	.	.	.	.
.	.	.	.	.	16aa\JJ	.	.	.	.	.	.	.	.	.	.	.	.	.	.	.	.	.
=62	=62	=62	=62	=62	=62	=62	=62	=62	=62	=62	=62	=62	=62	=62	=62	=62	=62	=62	=62	=62	=62	=62
8E\L	6\ 3	.	8gg\L	.	8bb\L	.	2E\	no-	.	2A\	no-	.	2g\	no-	.	2cc#\	no-	.	2A/	.	2e\	.
8E\	.	.	8gg\	.	8ccc#X\J	.	.	.	.	.	.	.	.	.	.	.	.	.	.	.	.	.
8E\	.	.	8gg\	.	(4.ccc#\	.	.	.	.	.	.	.	.	.	.	.	.	.	.	.	.	.
8E\J	.	.	8gg\J	.	.	.	.	.	.	.	.	.	.	.	.	.	.	.	.	.	.	.
*	*	*	*tremolo	*	*	*	*	*	*	*	*	*	*	*	*	*	*	*	*	*	*	*
8D\L	.	.	8ff#\L	.	.	.	2D\	-men	.	2A\	-men	.	2f#\	-men	.	2dd\	-men	.	2d\	.	2f#\	.
8D\	.	.	8ff#\	.	8ddd\)	.	.	.	.	.	.	.	.	.	.	.	.	.	.	.	.	.
8D\	.	.	8ff#\	.	8.ddd\L	.	.	.	.	.	.	.	.	.	.	.	.	.	.	.	.	.
8D\J	.	.	8ff#\J	.	.	.	.	.	.	.	.	.	.	.	.	.	.	.	.	.	.	.
.	.	.	.	.	32ccc#\LL	.	.	.	.	.	.	.	.	.	.	.	.	.	.	.	.	.
.	.	.	.	.	32ddd\JJJ	.	.	.	.	.	.	.	.	.	.	.	.	.	.	.	.	.
*	*	*	*Xtremolo	*	*	*	*	*	*	*	*	*	*	*	*	*	*	*	*	*	*	*
=63	=63	=63	=63	=63	=63	=63	=63	=63	=63	=63	=63	=63	=63	=63	=63	=63	=63	=63	=63	=63	=63	=63
!	!	!	!	!	!	!	!	!	!	!	!	!	!	!	!	!	!	!	!	!	!LO:LB:g=original	!
!	!	!	!	!	!	!	!	!	!	!	!	!	!	!	!	!	!	!	!LO:LB:g=original	!	!	!
8G\L	6	.	4ee\	.	4bb\	.	2G\	e-	.	(2B\	e-	.	2g\	e-	.	2ee\	e-	.	2e\	.	2g\	.
8G\	.	.	.	.	.	.	.	.	.	.	.	.	.	.	.	.	.	.	.	.	.	.
8G\	.	.	8gg\L	.	8bb\L	.	.	.	.	.	.	.	.	.	.	.	.	.	.	.	.	.
8G\J	.	.	16ff#\L	.	16aa\L	.	.	.	.	.	.	.	.	.	.	.	.	.	.	.	.	.
.	.	.	16ee\JJ	.	16gg\JJ	.	.	.	.	.	.	.	.	.	.	.	.	.	.	.	.	.
*Xtremolo	*	*	*	*	*	*	*	*	*	*	*	*	*	*	*	*	*	*	*	*	*	*
!LO:TX:t=P:problem=mixed beam	!	!	!	!	!	!	!	!	!	!	!	!	!	!	!	!	!	!	!	!	!	!
8A\L	4	.	4dd\	.	4ff#\	.	4A\	.	.	2A\)	.	.	4f#\	.	.	4dd\	.	.	4d\	.	4f#\	.
8A\	.	.	.	.	.	.	.	.	.	.	.	.	.	.	.	.	.	.	.	.	.	.
8AA/	3	.	4cc#\	.	4ee\	.	4AA/	.	.	.	.	.	4e\	.	.	4cc#\	.	.	4A/	.	4e\	.
8AA/J	.	.	.	.	.	.	.	.	.	.	.	.	.	.	.	.	.	.	.	.	.	.
=64	=64	=64	=64	=64	=64	=64	=64	=64	=64	=64	=64	=64	=64	=64	=64	=64	=64	=64	=64	=64	=64	=64
4D\	.	.	4dd\	.	4ff#\	.	4D\	ius	.	4A\	ius	.	2f#\	ius	.	4dd\	ius	.	4F#/	.	4d\	.
4B\	.	.	4ff#\	.	2ddd\	.	4B\	e-	.	2B\	e-	.	.	.	.	(2dd\	e-	.	2d\	.	4f#\	.
4G\	6 5	.	4.ee\	.	.	.	4G\	.	.	.	.	.	2e\	e-	.	.	.	.	.	.	2e\	.
4A\	.	.	.	.	4ccc#\	.	4A\	.	.	4A\	.	.	.	.	.	4cc#\)	.	.	4A/	.	.	.
.	.	.	16dd\LL	.	.	.	.	.	.	.	.	.	.	.	.	.	.	.	.	.	.	.
.	.	.	16ee\JJ	.	.	.	.	.	.	.	.	.	.	.	.	.	.	.	.	.	.	.
=65	=65	=65	=65	=65	=65	=65	=65	=65	=65	=65	=65	=65	=65	=65	=65	=65	=65	=65	=65	=65	=65	=65
2D\	.	.	2d\ 2a 2ff#	.	2ddd\	.	2D\	-ius	.	2A\	-ius	.	2f#\	-ius	.	2dd\	-ius	.	2F#/	.	2d\	.
2r	.	.	2r	.	2r	.	2r	.	.	2r	.	.	2r	.	.	2r	.	.	2r	.	2r	.
==	==	==	==	==	==	==	==	==	==	==	==	==	==	==	==	==	==	==	==	==	==	==
*-	*-	*-	*-	*-	*-	*-	*-	*-	*-	*-	*-	*-	*-	*-	*-	*-	*-	*-	*-	*-	*-	*-
!!!system-decoration: [(s1,s2)][(s3,s4,s5,s6)][(s7,s8)]s9
!!!ENC: Filip Voros
!!!END: 2021-11-26
!!!ENC: Kamil Watkowski
!!!END: 2021-12-07
!!!RDF**kern: > = above
!!!RDF**kern: < = below
!!!RDF**kern: | = vertical stroke
